;FLAVOR:RepRap
;TIME:1506
;Filament used: 3.78633m
;Layer height: 0.25
;MINX:92.682
;MINY:103.954
;MINZ:0.3
;MAXX:143.058
;MAXY:154.328
;MAXZ:48.05
;ARCWELDERPROCESSED
;Exported with Cura-DuetRRF v1.2.9 plugin by Thomas Kriechbaumer
; Postprocessed by [ArcWelder](https://github.com/FormerLurker/ArcWelderLib)
; Copyright(C) 2021 - Brad Hochgesang
; Version: 1.2.0, Branch: HEAD, BuildDate: 2021-11-21T20:25:43Z
; resolution=0.05mm
; path_tolerance=5.0%
; max_radius=9999.00mm
; allow_dynamic_precision=True
; default_xyz_precision=3
; default_e_precision=5
; extrusion_rate_variance_percent=5.0%

;Generated with Cura_SteamEngine 5.4.0
T0
M82 ;absolute extrusion mode
M190 S68 ;Start heating bed

M109 S150 ; set nozzle hold temperature to soften any gunk on nozzle

G28; home

G1 Z15 F6000 ; move the printer down 15mm

M104 S220 ;Start heating extruder

M109 S220 ;Wait for extruder to reach temp before proceeding



;prime the extruder

G1 X5 Y2 Z0.3 F6000; go to edge of build volume

G1 X60 E10 F1000 ;gentle purge start

G1 X110 E25 F1000; heavy purge

G1 X60

G92 E0
M83 ;relative extrusion mode
G1 F4200 E-0.5
;LAYER_COUNT:192
;LAYER:0
M107
M204 T8000
M566 X330 Y330
G0 F19200 X106.824 Y122.574 Z0.3
M204 P18000
M566 X600 Y600
;TYPE:SKIRT
G1 F4200 E0.5
G1 F2400 X124.201 Y107.189 E1.53206
G3 X127.525 Y105.460 I4.503 J4.598 E0.25096
G3 X132.111 Y106.511 I1.080 J5.820 E0.31945
G3 X133.233 Y107.475 I-4.188 J6.009 E0.09777
G1 X139.507 Y113.75 E0.58575
G3 X141.402 Y116.753 I-4.453 J4.910 E0.23727
G3 X140.955 Y121.295 I-5.882 J1.714 E0.30888
G3 X139.628 Y123.033 I-8.631 J-5.214 E0.14456
G1 X124.564 Y140.052 E1.50032
G3 X104.546 Y145.677 I-14.398 J-12.805 E1.44986
G3 X101.452 Y142.701 I2.210 J-5.394 E0.29025
G1 X101.158 Y142.013 E0.04939
G3 X106.538 Y122.844 I18.735 J-5.081 E1.37997
G0 F2160 X106.824 Y122.574
M566 X330 Y330
G0 F19200 X107.182 Y122.978
M566 X600 Y600
G1 F2400 X124.553 Y107.599 E1.5315
G3 X128.788 Y105.894 I4.157 J4.214 E0.30940
G3 X132.401 Y107.423 I-0.288 J5.714 E0.26420
G1 X132.851 Y107.857 E0.04127
G1 X139.117 Y114.124 E0.585
G3 X141.104 Y118.958 I-3.958 J4.452 E0.35717
G1 X140.872 Y120.1 E0.07692
G1 X140.479 Y121.034 E0.06689
G3 X139.224 Y122.675 I-8.013 J-4.828 E0.13658
G1 X124.17 Y139.682 E1.49929
G3 X104.747 Y145.173 I-14.002 J-12.429 E1.40723
G3 X101.674 Y141.846 I2.104 J-5.026 E0.30833
G3 X106.896 Y123.248 I18.217 J-4.917 E1.33866
G0 F2160 X107.182 Y122.978
M566 X330 Y330
G0 F19200 X107.54 Y123.382
M566 X600 Y600
G1 F2400 X124.905 Y108.008 E1.53099
G3 X129.422 Y106.509 I3.735 J3.700 E0.32625
G3 X132.026 Y107.812 I-1.152 J5.555 E0.19472
G1 X132.476 Y108.246 E0.04127
G1 X138.729 Y114.499 E0.58374
G3 X140.564 Y118.904 I-3.570 J4.072 E0.32624
G1 X140.355 Y119.936 E0.06951
G3 X139.493 Y121.529 I-4.471 J-1.390 E0.12013
G1 X138.82 Y122.317 E0.06841
G1 X123.776 Y139.312 E1.49826
G3 X104.947 Y144.669 I-13.606 J-12.054 E1.36467
G3 X102.191 Y141.681 I1.859 J-4.479 E0.27684
G3 X107.254 Y123.652 I17.696 J-4.756 E1.29749
G0 F2160 X107.54 Y123.382
M566 X330 Y330
G1 F4200 E-0.5
;MESH:3DBenchy.stl
G0 F19200 X119.266 Y125.526
M204 P3000
M566 X240 Y240
;TYPE:WALL-OUTER
G1 F4200 E0.5
G1 F2400 X119.171 Y125.54 E0.00634
G2 X118.432 Y126.425 I2.397 J2.753 E0.07632
G2 X118.475 Y127.306 I0.960 J0.395 E0.06010
G2 X119.968 Y128.692 I2.700 J-1.411 E0.13719
G2 X120.912 Y128.453 I0.278 J-0.885 E0.06750
G1 X121.575 Y127.83 E0.06006
G1 X119.544 Y125.804 E0.18937
G0 F2160 X119.266 Y125.526
M566 X330 Y330
G0 F19200 X119.171 Y125.54
G0 X119.1 Y125.616
G1 F4200 E-0.5
G0 F19200 X120.323 Y128.111
M204 P4000
M566 X300 Y300
;TYPE:WALL-INNER
G1 F4200 E0.5
G1 F1922.8 X120.702 Y127.817 E0.03952
G1 F1883.7 X120.107 Y127.244 E0.06947
G1 F1846.2 X119.24 Y126.376 E0.10528
G1 F1848.8 X118.985 Y126.714 E0.03628
G2 X119.244 Y127.372 I0.911 J0.021 E0.06229
G1 F1846.2 X119.628 Y127.76 E0.04685
G1 F1883.7 X119.975 Y128.029 E0.03693
G1 F1922.8 X120.251 Y128.126 E0.0241
G1 X120.323 Y128.111 E0.00606
M566 X330 Y330
G1 F4200 E-0.5
G0 F19200 X123.03 Y124.693
M204 P3000
M566 X240 Y240
;TYPE:WALL-OUTER
G1 F4200 E0.5
G3 X122.117 Y124.635 I-0.396 J-0.989 E0.06221 F2400
G1 F2142.1 X121.54 Y124.397 E0.04616
G1 F1848.8 X121.469 Y124.384 E0.00619
G1 F1795 X121.047 Y124.004 E0.05012
G1 F1934.3 X120.675 Y123.164 E0.07524
G1 F2223 X120.606 Y122.408 E0.0541
G1 F2400 X120.764 Y121.761 E0.04396
G3 X122.120 Y120.377 I2.757 J1.345 E0.12985
G3 X123.226 Y120.385 I0.545 J1.132 E0.07552
G3 X123.204 Y121.770 I-0.408 J0.686 E0.11166
G3 X122.349 Y122.002 I-1.035 J-2.122 E0.05873
G2 X122.605 Y123.024 I0.399 J0.443 E0.08609
G2 X123.372 Y122.953 I0.295 J-0.994 E0.05198
G1 X123.871 Y122.617 E0.03971
G1 X124.303 Y122.535 E0.02903
G3 X124.909 Y123.209 I-0.249 J0.834 E0.06278
G1 F2408.9 X124.901 Y123.585 E0.02473
G1 F2306 X124.518 Y124.302 E0.05585
G1 F2114.2 X124.543 Y124.546 E0.01838
G1 F2028.2 X124.705 Y124.731 E0.01921
G2 X125.104 Y124.574 I0.120 J-0.281 E0.03724
G1 F2167.2 X125.297 Y124.006 E0.04385
G1 F2365 X125.45 Y123.699 E0.02298
G1 F2404.5 X125.728 Y123.511 E0.02211
G1 F2400 X125.973 Y123.477 E0.01633
G1 F2408.9 X126.448 Y123.603 E0.03232
G1 F2427 X126.672 Y123.808 E0.01982
G1 F2422.4 X126.779 Y124.051 E0.01736
G1 F2404.5 X126.787 Y124.449 E0.02623
G3 X124.762 Y126.489 I-2.650 J-0.606 E0.20050 F2400
G3 X123.468 Y125.966 I-0.184 J-1.406 E0.09594
G1 X123.062 Y125.427 E0.04454
G1 X122.978 Y125.088 E0.02305
G1 X122.979 Y125.084 E0.00027
G0 F2160 X123.03 Y124.693
M566 X330 Y330
G0 F19200 X122.93 Y124.736
G0 X122.839 Y124.743
G1 F4200 E-0.5
G0 F19200 X127.683 Y123.714
M566 X240 Y240
G1 F4200 E0.5
G1 F2400 X127.383 Y123.682 E0.01992
G1 F2413.4 X127.168 Y123.553 E0.01646
G1 F2431.5 X126.975 Y123.354 E0.01806
G1 F2417.9 X126.841 Y123.025 E0.02328
G1 F2400 X126.888 Y122.69 E0.02233
G1 X127.202 Y122.22 E0.03731
G1 X127.782 Y121.7 E0.05142
G1 X127.881 Y121.556 E0.01154
G2 X125.004 Y118.712 I-47.701 J45.377 E0.26706
G1 X124.742 Y118.214 E0.03715
G3 X125.039 Y117.481 I0.762 J-0.118 E0.05457
G1 X125.509 Y117.297 E0.03332
G1 X125.817 Y117.388 E0.0212
G2 X128.785 Y120.386 I1749.919 J-1729.440 E0.27850
G1 X128.918 Y120.431 E0.00927
G2 X129.355 Y120.136 I-0.119 J-0.648 E0.03555
G3 X129.898 Y119.535 I1.642 J0.938 E0.05375
G3 X130.350 Y119.462 I0.318 J0.531 E0.03077
G3 X130.919 Y119.850 I-0.164 J0.852 E0.04676 F2382
G1 F2400 X131.052 Y120.269 E0.02902
G3 X130.834 Y120.784 I-0.700 J0.007 E0.03769
G2 X128.005 Y123.551 I48.886 J52.811 E0.26144
G0 F2160 X127.683 Y123.714
M566 X330 Y330
G0 F19200 X127.484 Y123.693
G1 F4200 E-0.5
G0 F19200 X131.03 Y119.19
M566 X240 Y240
G1 F4200 E0.5
G1 F2395.6 X130.769 Y118.897 E0.02595
G1 F2400 X130.677 Y118.553 E0.02351
G1 X130.75 Y118.188 E0.02457
G3 X131.194 Y117.815 I0.737 J0.426 E0.03887
G2 X132.106 Y117.521 I-0.457 J-2.980 E0.06342
G2 X132.410 Y116.174 I-0.662 J-0.857 E0.09839
G2 X130.698 Y114.581 I-3.066 J1.579 E0.15746
G2 X129.317 Y115.332 I-0.287 J1.118 E0.11403
G3 X128.170 Y116.330 I-0.864 J0.165 E0.12174
G1 X127.963 Y116.18 E0.01687
G3 X128.022 Y114.410 I1.535 J-0.835 E0.12274
G3 X130.492 Y112.992 I2.501 J1.497 E0.19682
G3 X131.570 Y113.245 I-0.181 J3.192 E0.07337
G1 F2459.2 X132.162 Y113.636 E0.04571
G1 F2612.9 X132.671 Y114.078 E0.04087
G1 F2705.6 X133.052 Y114.467 E0.03188
G1 F2556.2 X133.61 Y115.128 E0.05361
G1 F2413.4 X133.92 Y115.785 E0.04769
G1 F2400 X134.063 Y116.494 E0.04774
G3 X131.805 Y119.321 I-2.740 J0.127 E0.26124
G1 X131.419 Y119.322 E0.02548
G1 F2395.6 X131.03 Y119.19 E0.02717
M566 X330 Y330
G0 F19200 X130.897 Y119.041
G1 F4200 E-0.5
G0 F19200 X115.375 Y132.653
M566 X240 Y240
G1 F4200 E0.5
G3 X115.560 Y133.860 I-1.669 J0.874 E0.08204 F2400
G1 X115.361 Y134.182 E0.02499
G3 X114.769 Y134.307 I-0.432 J-0.583 E0.04086
G1 F2378 X114.484 Y134.189 E0.02055
G1 X114.207 Y133.784 E0.03269
G1 F2400 X113.873 Y132.445 E0.0911
G2 X113.619 Y132.156 I-0.522 J0.203 E0.02579
G1 X112.131 Y131.786 E0.10122
G1 X111.736 Y131.528 E0.03114
G1 X111.551 Y131.234 E0.02293
G1 X111.548 Y130.838 E0.02614
G1 X111.757 Y130.486 E0.02702
G3 X112.373 Y130.276 I0.532 J0.551 E0.04401
G1 X113.393 Y130.555 E0.06981
G3 X113.121 Y129.463 I3.351 J-1.414 E0.07450
G1 X113.251 Y129.024 E0.03022
G3 X114.040 Y128.786 I0.577 J0.485 E0.05721
G1 F2683.2 X114.319 Y129.054 E0.02284
G1 F2688.8 X114.548 Y129.397 E0.0243
G1 F2404.5 X114.839 Y130.492 E0.07465
G1 F2400 X114.926 Y130.964 E0.03168
G2 X115.270 Y131.075 I0.294 J-0.322 E0.02424
G1 X116.487 Y131.405 E0.08324
G3 X117.094 Y131.973 I-0.179 J0.800 E0.05695
G1 X117.055 Y132.394 E0.02791
G1 X116.78 Y132.746 E0.02949
G1 X116.466 Y132.868 E0.02224
G1 X115.835 Y132.796 E0.04192
G1 X115.714 Y132.758 E0.00837
G0 F2160 X115.375 Y132.653
M566 X330 Y330
G0 F19200 X115.447 Y132.839
G1 F4200 E-0.5
G0 F19200 X111.417 Y134.868
M566 X240 Y240
G1 F4200 E0.5
G1 F2400 X112.144 Y136.38 E0.11075
G3 X112.269 Y137.101 I-1.273 J0.592 E0.04867
G1 X112.141 Y137.39 E0.02086
G1 X111.855 Y137.576 E0.02252
G1 X111.385 Y137.576 E0.03103
G1 F2566.3 X111.066 Y137.354 E0.02399
G1 F2612.9 X110.833 Y137.072 E0.02218
G1 F2440.7 X110.62 Y136.524 E0.03816
G3 X108.581 Y132.187 I67.988 J-34.612 E0.31639 F2400
G1 X108.339 Y131.466 E0.0502
G3 X109.131 Y129.656 I1.650 J-0.356 E0.13928
G3 X110.081 Y129.957 I0.262 J0.823 E0.06965
G3 X110.143 Y130.557 I-0.448 J0.350 E0.04135 F2405
G1 F2400 X109.865 Y131.101 E0.04033
G2 X109.899 Y131.598 I0.728 J0.200 E0.03335
G1 X110.399 Y132.751 E0.08296
G1 X110.525 Y132.844 E0.01034
G3 X113.007 Y133.939 I-9.777 J25.521 E0.17911
G1 X113.618 Y134.203 E0.04394
G1 F2386.7 X114.027 Y134.492 E0.03324
G1 F2378 X114.194 Y134.705 E0.01803
G1 F2391.1 X114.275 Y134.946 E0.01685
G3 X113.853 Y135.630 I-0.741 J0.015 E0.05598 F2400
G1 X113.518 Y135.737 E0.02321
G1 X113.089 Y135.676 E0.0286
G2 X111.630 Y134.961 I-4.197 J6.717 E0.10739
G0 F2160 X111.417 Y134.868
M566 X330 Y330
G0 F19200 X111.503 Y135.048
G1 F4200 E-0.5
G0 F19200 X109.079 Y138.326
M566 X240 Y240
G1 F4200 E0.5
G3 X110.194 Y137.442 I1.961 J1.328 E0.09554 F2400
G1 F2408.9 X110.362 Y137.448 E0.01106
G1 F2546.2 X110.625 Y137.568 E0.01799
G1 F2556.2 X110.946 Y137.868 E0.02723
G1 F2417.9 X111.024 Y138.075 E0.01449
G3 X110.665 Y138.878 I-0.983 J0.042 E0.06016 F2400
G1 X109.175 Y140.363 E0.13886
G1 X108.792 Y140.563 E0.02852
G1 X108.553 Y140.552 E0.01579
G1 F2404.5 X108.264 Y140.423 E0.02085
G1 X107.921 Y140.039 E0.03393
G1 F2400 X107.755 Y139.575 E0.03253
G2 X107.302 Y137.083 I-47.419 J7.333 E0.16720
G3 X106.294 Y138.006 I-2.524 J-1.745 E0.09079
G3 X105.607 Y137.891 I-0.238 J-0.685 E0.04764
G1 F2149.3 X105.263 Y137.523 E0.03713
G1 F1870.1 X105.205 Y137.4 E0.01152
G1 F2057.1 X105.139 Y138.083 E0.05285
G1 F2400 X105.292 Y139.277 E0.07946
G1 X105.577 Y140.643 E0.09211
G2 X106.425 Y141.438 I1.076 J-0.297 E0.08027
G1 X107.147 Y141.604 E0.0489
G1 F2404.5 X107.777 Y141.723 E0.04224
G1 X108.575 Y141.836 E0.0531
G1 F2400 X109.459 Y141.896 E0.05849
G2 X121.427 Y136.628 I0.674 J-14.698 E0.89445
G1 X136.771 Y119.291 E1.52829
G1 X137.009 Y118.766 E0.03805
G2 X136.937 Y117.885 I-1.383 J-0.330 E0.05907
G1 X136.644 Y117.422 E0.03617
G1 F2427 X133.986 Y114.756 E0.24575
G1 F2571.4 X133.394 Y114.13 E0.05308
G1 F2705.6 X132.992 Y113.725 E0.03341
G1 F2546.2 X131.991 Y112.768 E0.08617
G1 F2400 X129.595 Y110.372 E0.22368
G1 X129.118 Y110.07 E0.03727
G2 X127.717 Y110.249 I-0.537 J1.366 E0.09693
G1 X109.801 Y126.101 E1.57914
G2 X105.108 Y136.368 I10.007 J10.780 E0.76478
G1 F2314.3 X105.121 Y136.901 E0.0365
G1 F1990.8 X105.201 Y137.249 E0.02842
G1 F1951.8 X105.317 Y137.009 E0.02164
G1 F2261.8 X105.599 Y136.675 E0.03062
G2 X107.231 Y135.017 I-18.498 J-19.840 E0.15361 F2400
G3 X108.323 Y135.133 I0.482 J0.656 E0.08022
G3 X108.656 Y135.771 I-1.047 J0.953 E0.04789
G1 X109.015 Y137.938 E0.145
G0 F2160 X109.079 Y138.326
M566 X330 Y330
G0 F19200 X109.209 Y138.175
G1 F4200 E-0.5
G0 F19200 X109.469 Y137.157
M204 P4000
M566 X300 Y300
;TYPE:WALL-INNER
G1 F4200 E0.5
G1 F2100.5 X109.808 Y136.958 E0.02965
G1 F2253.9 X110.121 Y136.89 E0.02251
G1 F2639.5 X109.53 Y135.42 E0.0951
G1 F2781.1 X109.304 Y134.908 E0.03188
G1 F2531.2 X108.902 Y134.197 E0.05112
G1 F2400 X108.549 Y133.452 E0.05442
G3 X107.840 Y131.691 I10.293 J-5.167 E0.12541
G1 F2365 X107.743 Y131.137 E0.03768
G1 F2297.9 X107.862 Y130.407 E0.05099
G1 F2318.4 X108.12 Y129.889 E0.03954
G1 F2343.6 X108.358 Y129.553 E0.02783
G1 F2356.4 X108.711 Y129.265 E0.03063
G1 F2400 X109.019 Y129.128 E0.02225
G1 X109.543 Y129.082 E0.03472
G3 X110.561 Y129.709 I-0.146 J1.377 E0.08138
G1 F2408.9 X110.732 Y130.174 E0.03258
G1 F2445.3 X110.691 Y130.485 E0.02032
G1 F2360.7 X110.406 Y131.33 E0.05985
G1 F2281.7 X110.534 Y131.681 E0.02594
G1 F2318.4 X110.844 Y132.339 E0.0497
G1 F2391.1 X111.648 Y132.736 E0.05941
G1 F2211.6 X112.926 Y133.252 E0.09873
G1 F2009.3 X113.531 Y133.518 E0.05211
G1 F2100.5 X113.326 Y132.703 E0.06339
G1 F2257.8 X111.905 Y132.28 E0.10403
G1 F2211.6 X111.305 Y131.91 E0.0505
G1 F2207.8 X111.048 Y131.456 E0.03744
G1 F2281.7 X110.984 Y131.273 E0.01346
G1 F2541.2 X111.058 Y130.75 E0.03293
G1 F2644.9 X111.25 Y130.271 E0.03091
G1 F2408.9 X111.369 Y130.11 E0.01317
G1 F2400 X111.78 Y129.835 E0.03264
G1 X112.318 Y129.732 E0.03616
G1 X112.632 Y129.786 E0.02103
G3 X113.822 Y128.219 I1.191 J-0.331 E0.15032
G3 X116.298 Y126.383 I1.798 J-0.163 E0.24387
G3 X116.958 Y124.896 I2.829 J0.366 E0.10870
G3 X118.017 Y123.780 I6.783 J5.376 E0.10166
G3 X118.659 Y123.173 I1.439 J0.879 E0.05880
G1 X118.903 Y123.074 E0.01738
G1 X119.446 Y123.074 E0.03584
G3 X120.290 Y123.613 I-0.400 J1.556 E0.06694
G3 X120.641 Y120.936 I2.405 J-1.046 E0.18727
G3 X122.552 Y119.716 I2.495 J1.802 E0.15341
G3 X123.502 Y119.921 I0.170 J1.514 E0.06500
G1 X123.926 Y120.29 E0.0371
G3 X124.166 Y120.915 I-0.898 J0.703 E0.04467
G1 X124.124 Y121.45 E0.03542
G1 X123.933 Y121.811 E0.02696
G1 F2395.6 X123.58 Y122.161 E0.03288
G1 X123.81 Y122.061 E0.01659
G1 F2400 X124.273 Y121.988 E0.03094
G1 X124.756 Y122.136 E0.03335
G3 X125.424 Y123.065 I-0.720 J1.222 E0.07747
G3 X126.311 Y122.997 I0.522 J0.984 E0.06023
G1 X126.299 Y122.826 E0.01132
G1 X126.46 Y122.341 E0.03373
G3 X127.126 Y121.563 I2.146 J1.163 E0.06795
G2 X124.608 Y119.085 I-37.252 J35.335 E0.23323
G1 X124.287 Y118.547 E0.04136
G3 X124.681 Y117.077 I1.191 J-0.468 E0.10743
G1 X125.194 Y116.818 E0.03794
G1 X125.52 Y116.757 E0.02189
G3 X126.176 Y116.974 I-0.042 J1.226 E0.04605
G2 X128.956 Y119.770 I126.457 J-122.953 E0.26030
G1 X129.38 Y119.256 E0.04398
G3 X130.212 Y118.913 I0.829 J0.830 E0.06078
G1 X130.139 Y118.608 E0.0207
G1 X130.205 Y118.099 E0.03388
G3 X130.545 Y117.589 I1.093 J0.360 E0.04079
G1 X131.013 Y117.306 E0.0361
G1 X131.664 Y117.128 E0.04455
G1 X131.82 Y117.052 E0.01145
G2 X131.964 Y116.479 I-0.445 J-0.417 E0.04028
G2 X130.535 Y115.102 I-2.637 J1.306 E0.13355
G2 X129.853 Y115.747 I-0.147 J0.527 E0.07366
G3 X127.570 Y116.550 I-1.357 J-0.212 E0.19598
G3 X127.269 Y115.934 I1.300 J-1.017 E0.04550
G3 X127.524 Y114.171 I2.444 J-0.546 E0.12006
G1 X128.074 Y113.463 E0.05918
G3 X130.968 Y112.508 I2.355 J2.275 E0.20961
G1 X129.255 Y110.796 E0.15987
G1 X128.882 Y110.56 E0.02914
G2 X128.021 Y110.701 I-0.292 J0.914 E0.05968
G1 X110.169 Y126.496 E1.57348
G2 X108.504 Y128.340 I8.195 J9.073 E0.16422
G1 F2395.6 X108.092 Y128.916 E0.04683
G1 F2378 X107.648 Y129.615 E0.05517
G1 F2386.7 X107.059 Y130.687 E0.08119
G1 F2400 X106.73 Y131.43 E0.05364
G2 X105.685 Y135.823 I12.793 J5.364 E0.29943
G2 X106.839 Y134.645 I-12.306 J-13.210 E0.10888
G3 X108.456 Y134.549 I0.865 J0.900 E0.11589
G1 F2459.2 X108.652 Y134.721 E0.0168
G1 F2745.8 X108.98 Y135.239 E0.03538
G1 F2945.5 X109.135 Y135.639 E0.02307
G1 F2427 X109.397 Y136.719 E0.07255
G1 F2100.5 X109.469 Y137.157 E0.03348
M566 X330 Y330
G1 F4200 E-0.5
G0 F19200 X108.86 Y141.209
M566 X300 Y300
G1 F4200 E0.5
G1 F1691.9 X108.189 Y141.118 E0.06341
M566 X330 Y330
G0 F19200 X108.157 Y141.122
M566 X300 Y300
G1 F2167.2 X107.583 Y140.499 E0.06193
G1 F2400 X107.414 Y140.225 E0.02125
G1 X107.228 Y139.694 E0.03714
G1 X106.964 Y138.188 E0.10093
G3 X105.739 Y138.518 I-0.877 J-0.815 E0.08788
G2 X106.091 Y140.465 I12.735 J-1.297 E0.13070
G2 X106.587 Y140.921 I0.594 J-0.149 E0.04673
G1 X107.516 Y141.135 E0.06293
G1 F2265.7 X107.86 Y141.156 E0.0241
