;FLAVOR:RepRap
;TIME:1594
;Filament used: 3.73263m
;Layer height: 0.25
;MINX:82.686
;MINY:101.945
;MINZ:0.3
;MAXX:133.058
;MAXY:152.313
;MAXZ:48.05
;ARCWELDERPROCESSED
;Exported with Cura-DuetRRF v1.2.9 plugin by Thomas Kriechbaumer
; Postprocessed by [ArcWelder](https://github.com/FormerLurker/ArcWelderLib)
; Copyright(C) 2021 - Brad Hochgesang
; Version: 1.2.0, Branch: HEAD, BuildDate: 2021-11-21T20:25:43Z
; resolution=0.05mm
; path_tolerance=5.0%
; max_radius=9999.00mm
; allow_dynamic_precision=True
; default_xyz_precision=3
; default_e_precision=5
; extrusion_rate_variance_percent=5.0%

;Generated with Cura_SteamEngine 5.3.1
T0
M190 S68
M104 S225
M109 S225
M82 ;absolute extrusion mode
G28; home
G1 Z15 F6000 ; move the printer down 15mm

;prime the extruder
G1 X5 Y1 Z0.3 F6000; go to edge of build volume
G1 X60 E15 F1000 ;gentle purge start
G1 X110 E30 F1000; heavy purge
G92 E0
M83 ;relative extrusion mode
G1 F4200 E-0.5
;LAYER_COUNT:192
;LAYER:0
M107
M204 T18000
M566 X330 Y330
G0 F19200 X98.026 Y120.932 Z0.3
M204 P18000
M566 X600 Y600
;TYPE:SKIRT
G1 F4200 E0.5
G1 F2400 X114.822 Y106.071 E1.48042
G3 X118.131 Y104.441 I4.027 J4.001 E0.24820
G3 X122.026 Y105.800 I0.359 J5.231 E0.27994
G1 X122.476 Y106.234 E0.04127
G1 X128.721 Y112.48 E0.58304
G3 X130.587 Y116.516 I-3.596 J4.112 E0.30239
G3 X128.984 Y120.114 I-5.284 J-0.198 E0.26622
G1 X114.202 Y136.819 E1.47246
G3 X95.424 Y142.821 I-14.084 J-11.689 E1.37408
G3 X92.150 Y139.455 I1.339 J-4.578 E0.32418
G3 X98.026 Y120.932 I17.683 J-4.584 E1.35220
M566 X330 Y330
G0 F19200 X97.668 Y120.528
M566 X600 Y600
G1 F2400 X114.47 Y105.662 E1.48093
G3 X118.087 Y103.901 I4.375 J4.391 E0.27068
G3 X120.503 Y104.232 I0.373 J6.257 E0.16206
G3 X122.858 Y105.852 I-2.588 J6.285 E0.19002
G1 X129.109 Y112.104 E0.5836
G3 X131.057 Y115.527 I-4.182 J4.646 E0.26440
G3 X129.388 Y120.472 I-5.666 J0.842 E0.35760
G1 X114.6 Y137.184 E1.47307
G3 X95.245 Y143.331 I-14.480 J-12.048 E1.41563
G3 X91.623 Y139.573 I1.521 J-5.090 E0.36031
G3 X97.668 Y120.528 I18.207 J-4.703 E1.39018
M566 X330 Y330
G0 F19200 X97.31 Y120.124
M566 X600 Y600
G1 F2400 X114.118 Y105.253 E1.48145
G3 X117.144 Y103.507 I5.023 J5.211 E0.23300
G3 X120.667 Y103.717 I1.389 J6.355 E0.23608
G3 X123.240 Y105.470 I-2.755 J6.809 E0.20701
G1 X129.497 Y111.728 E0.58416
G3 X131.593 Y115.440 I-4.595 J5.042 E0.28612
G3 X130.271 Y120.273 I-5.938 J0.973 E0.34078
G1 X129.792 Y120.83 E0.04849
G1 X114.998 Y137.549 E1.47368
G3 X95.066 Y143.841 I-14.875 J-12.406 E1.45718
G3 X91.096 Y139.690 I1.701 J-5.601 E0.39651
G3 X97.310 Y120.124 I18.731 J-4.821 E1.42809
M566 X330 Y330
G1 F4200 E-0.5
;MESH:3DBenchy.stl
G0 F19200 X109.262 Y123.508
M204 P2400
M566 X180 Y180
;TYPE:WALL-OUTER
G1 F4200 E0.5
G1 F2400 X109.194 Y123.506 E0.00449
G2 X108.428 Y124.423 I3.159 J3.417 E0.07903
G2 X108.567 Y125.463 I1.100 J0.382 E0.07197
G2 X109.973 Y126.681 I2.608 J-1.590 E0.12469
G2 X110.565 Y126.683 I0.299 J-0.816 E0.03968
G2 X111.575 Y125.818 I-3.666 J-5.303 E0.08790
G1 X109.262 Y123.508 E0.21579
M566 X330 Y330
G0 F19200 X109.194 Y123.506
G0 X109.105 Y123.602
G1 F4200 E-0.5
G0 F19200 X110.704 Y125.804
M204 P4000
M566 X300 Y300
;TYPE:WALL-INNER
G1 F4200 E0.5
G1 F1881 X109.911 Y125.038 E0.09286
G1 F1875.5 X109.616 Y124.723 E0.03645
G1 F1914.3 X109.242 Y124.349 E0.04377
G1 X108.968 Y124.714 E0.03777
G2 X109.087 Y125.141 I0.671 J0.043 E0.03720
G1 F1875.5 X109.622 Y125.743 E0.06803
G1 F1881 X109.97 Y126.014 E0.03715
G2 X110.316 Y126.111 I0.307 J-0.428 E0.03001 F1926
G1 X110.704 Y125.804 E0.0407
M566 X330 Y330
G1 F4200 E-0.5
G0 F19200 X116.8 Y122.209
M204 P2400
M566 X180 Y180
;TYPE:WALL-OUTER
G1 F4200 E0.5
G3 X116.518 Y123.173 I-1.897 J-0.032 E0.06689 F2400
G3 X114.905 Y124.454 I-2.572 J-1.582 E0.13895
G3 X113.465 Y123.950 I-0.322 J-1.389 E0.10577
G3 X112.984 Y123.131 I1.090 J-1.191 E0.06340
G1 X113.033 Y122.676 E0.03021
G3 X112.564 Y122.756 I-0.354 J-0.661 E0.03171
G1 X112.117 Y122.623 E0.03079
G1 F2142.1 X111.54 Y122.385 E0.04616
G1 F1848.8 X111.469 Y122.372 E0.00619
G1 F1800 X111.093 Y122.044 E0.04392
G1 F1765.7 X110.764 Y121.611 E0.04879
G1 F1996.9 X110.747 Y121.284 E0.02598
G3 X111.419 Y118.876 I2.018 J-0.735 E0.17618 F2400
G3 X112.584 Y118.243 I1.645 J1.639 E0.08875
G3 X113.621 Y119.227 I0.159 J0.870 E0.11029
G3 X113.203 Y119.760 I-0.951 J-0.315 E0.04530 F2405
G3 X112.350 Y119.990 I-1.005 J-2.029 E0.05858 F2400
G2 X112.156 Y120.265 I0.207 J0.352 E0.02260
G1 X112.162 Y120.6 E0.02212
G1 X112.373 Y120.894 E0.02389
G2 X113.370 Y120.941 I0.538 J-0.807 E0.06904
G1 X113.883 Y120.596 E0.04081
G3 X114.852 Y121.014 I0.289 J0.662 E0.07856
G1 F2395.6 X114.92 Y121.33 E0.02138
G1 F2285.7 X114.879 Y121.611 E0.01968
G1 F2100.5 X114.557 Y122.177 E0.04912
G1 F2025 X114.522 Y122.328 E0.01213
G2 X114.987 Y122.697 I0.324 J0.070 E0.05828 F2028
G1 F2025 X115.168 Y122.378 E0.02869
G1 F2100.5 X115.35 Y121.833 E0.04334
G1 F2285.7 X115.509 Y121.622 E0.01831
G1 F2395.6 X115.912 Y121.465 E0.0286
G1 F2400 X116.27 Y121.507 E0.02379
G1 F2382.4 X116.534 Y121.646 E0.01984
G1 F2391.1 X116.69 Y121.825 E0.01573
G1 F2408.9 X116.8 Y122.209 E0.02627
M566 X330 Y330
G0 F19200 X116.767 Y122.406
G1 F4200 E-0.5
G0 F19200 X121.049 Y118.252
M566 X180 Y180
G1 F4200 E0.5
G1 F2400 X120.914 Y118.686 E0.03
G2 X117.900 Y121.633 I77.917 J82.703 E0.27833
G1 X117.569 Y121.706 E0.02237
G1 F2404.5 X117.357 Y121.656 E0.01435
G1 F2413.4 X117.108 Y121.493 E0.01954
G1 F2404.5 X116.874 Y121.173 E0.02612
G1 F2395.6 X116.844 Y120.809 E0.02415
G1 F2400 X116.984 Y120.503 E0.02221
G3 X117.781 Y119.688 I3.982 J3.097 E0.07537
G1 X117.879 Y119.55 E0.01117
G2 X114.910 Y116.590 I-98.422 J95.752 E0.27675
G1 X114.742 Y116.201 E0.02797
G3 X115.901 Y115.434 I0.751 J-0.125 E0.11595
G2 X118.412 Y117.980 I58.142 J-54.832 E0.23611
G2 X118.838 Y118.403 I1.014 J-0.596 E0.03988
G2 X119.074 Y118.377 I0.089 J-0.272 E0.01604
G2 X119.682 Y117.706 I-1.601 J-2.062 E0.05999
G3 X120.042 Y117.470 I0.493 J0.360 E0.02881
G1 F2395.6 X120.429 Y117.467 E0.02559
G1 F2391.1 X120.694 Y117.6 E0.01965
G1 F2395.6 X120.927 Y117.857 E0.02294
G1 F2400 X121.049 Y118.252 E0.02729
M566 X330 Y330
G0 F19200 X120.99 Y118.443
G1 F4200 E-0.5
G0 F19200 X123.873 Y115.643
M566 X180 Y180
G1 F4200 E0.5
G3 X121.920 Y117.295 I-2.593 J-1.085 E0.17534 F2400
G1 X121.343 Y117.291 E0.03809
G1 F2382.4 X120.943 Y117.116 E0.02903
G1 X120.76 Y116.854 E0.02125
G1 F2400 X120.676 Y116.503 E0.02382
G3 X121.199 Y115.801 I0.763 J0.023 E0.06140
G2 X122.106 Y115.509 I-0.448 J-2.947 E0.06307
G2 X122.503 Y114.444 I-0.666 J-0.855 E0.07876
G2 X121.348 Y112.923 I-2.962 J1.050 E0.12806
G2 X120.412 Y112.523 I-1.076 J1.223 E0.06822
G2 X119.305 Y113.362 I0.015 J1.169 E0.09794
G3 X119.110 Y114.096 I-0.755 J0.192 E0.05203
G1 X118.714 Y114.339 E0.03067
G3 X118.169 Y114.318 I-0.238 J-0.902 E0.03630
G1 X117.931 Y114.141 E0.01958
G1 X117.749 Y113.558 E0.04032
G3 X117.824 Y112.824 I1.866 J-0.180 E0.04894
G3 X121.104 Y111.076 I2.616 J0.958 E0.26880
G1 X121.472 Y111.207 E0.02579
G1 F2422.4 X122.03 Y111.523 E0.04194
G1 F2566.3 X122.662 Y112.06 E0.0512
G1 F2700 X123.051 Y112.454 E0.03249
G1 F2628.8 X123.613 Y113.119 E0.05247
G1 F2478 X123.907 Y113.749 E0.04445
G3 X123.873 Y115.643 I-2.423 J0.904 E0.12782 F2400
M566 X330 Y330
G0 F19200 X123.773 Y115.816
G1 F4200 E-0.5
G0 F19200 X126.9 Y117.049
M566 X180 Y180
G1 F4200 E0.5
G2 X126.946 Y115.889 I-1.247 J-0.630 E0.07868 F2400
G1 X126.644 Y115.41 E0.03738
G1 F2427 X123.986 Y112.744 E0.24575
G1 F2566.3 X123.393 Y112.116 E0.05332
G1 F2700 X122.982 Y111.704 E0.03415
G1 F2566.3 X122.346 Y111.104 E0.05398
G1 F2422.4 X119.595 Y108.36 E0.25412
G1 F2400 X119.118 Y108.058 E0.03727
G2 X117.622 Y108.321 I-0.536 J1.337 E0.10524
G1 X99.801 Y124.09 E1.57081
G2 X95.098 Y134.482 I10.016 J10.793 E0.77312
G1 F1990.8 X95.213 Y135.071 E0.04776
G1 X95.515 Y134.748 E0.03519
G1 F2400 X96.553 Y133.703 E0.09723
G1 X97.148 Y133.081 E0.05682
G3 X97.783 Y132.829 I0.551 J0.463 E0.04651
G3 X98.655 Y133.761 I-0.280 J1.136 E0.08873
G1 X99.074 Y136.33 E0.17182
G3 X100.131 Y135.441 I2.233 J1.582 E0.09226
G1 F2417.9 X100.477 Y135.452 E0.02268
G1 F2576.5 X100.663 Y135.579 E0.01385
G1 F2556.2 X100.966 Y135.889 E0.02687
G1 F2400 X101.027 Y136.075 E0.01292
G3 X100.673 Y136.858 I-0.986 J0.026 E0.05862
G1 X99.175 Y138.351 E0.13961
G1 X98.784 Y138.552 E0.02902
G1 X98.551 Y138.54 E0.0154
G3 X97.959 Y138.097 I0.316 J-1.040 E0.04953
G1 X97.759 Y137.581 E0.03653
G2 X97.303 Y135.074 I-48.890 J7.598 E0.16821
G3 X96.407 Y135.927 I-2.423 J-1.648 E0.08213
G1 X96.045 Y136.038 E0.02499
G3 X95.596 Y135.873 I-0.009 J-0.669 E0.03211
G1 F2131.6 X95.258 Y135.517 E0.03649
G1 F1848.8 X95.206 Y135.41 E0.01019
G1 F2047.4 X95.137 Y136.066 E0.05104
G1 F2400 X95.26 Y137.007 E0.06265
G2 X95.595 Y138.632 I12.263 J-1.681 E0.10958
G2 X96.225 Y139.372 I1.080 J-0.281 E0.06611
G2 X98.446 Y139.806 I4.137 J-15.274 E0.14952
G2 X100.216 Y139.907 I1.673 J-13.759 E0.11687 F2405
G2 X110.940 Y135.165 I-0.075 J-14.667 E0.79606 F2400
G1 X126.734 Y117.312 E1.57348
G1 X126.9 Y117.049 E0.02053
M566 X330 Y330
G0 F19200 X126.955 Y116.857
G1 F4200 E-0.5
G0 F19200 X105.372 Y130.635
M566 X180 Y180
G1 F4200 E0.5
G3 X105.558 Y131.856 I-1.511 J0.855 E0.08313 F2400
G1 X105.349 Y132.179 E0.0254
G1 X105.181 Y132.271 E0.01264
G1 X104.817 Y132.297 E0.02409
G1 F2386.7 X104.468 Y132.163 E0.02481
G1 F2352.1 X104.238 Y131.89 E0.02404
G1 F2365 X103.844 Y130.388 E0.10402
G2 X103.622 Y130.147 I-0.443 J0.185 E0.02196 F2400
G3 X102.223 Y129.796 I10.038 J-42.972 E0.09521
G3 X101.530 Y128.877 I0.193 J-0.867 E0.08320
G3 X101.924 Y128.351 I0.812 J0.197 E0.04420 F2405
G3 X102.486 Y128.295 I0.354 J0.709 E0.03789 F2400
G1 X103.39 Y128.535 E0.06174
G3 X103.144 Y127.252 I2.691 J-1.181 E0.08703
G1 X103.228 Y127.046 E0.01469
G3 X104.039 Y126.773 I0.600 J0.441 E0.05972
G1 F2683.2 X104.319 Y127.042 E0.02293
G1 F2688.8 X104.548 Y127.385 E0.0243
G1 F2404.5 X104.839 Y128.475 E0.07433
G1 F2400 X104.919 Y128.946 E0.03154
G1 X104.991 Y129 E0.00594
G3 X106.449 Y129.378 I-2.468 J12.521 E0.09946
G3 X107.034 Y129.802 I-0.291 J1.017 E0.04843
G1 X107.098 Y130.226 E0.02831
G1 X106.914 Y130.609 E0.02805
G3 X106.267 Y130.853 I-0.548 J-0.474 E0.04709
G3 X105.372 Y130.635 I0.234 J-2.908 E0.06100
M566 X330 Y330
G0 F19200 X105.444 Y130.821
G1 F4200 E-0.5
G0 F19200 X104.264 Y132.893
M566 X180 Y180
G1 F4200 E0.5
G3 X103.509 Y133.727 I-0.786 J0.048 E0.08238 F2400
G1 X103.11 Y133.677 E0.02654
G1 X102.448 Y133.299 E0.05032
G1 X102.441 Y133.304 E0.00057
G1 X101.424 Y132.86 E0.07325
G2 X102.107 Y134.274 I29.159 J-13.213 E0.10367
G3 X102.269 Y135.081 I-1.449 J0.711 E0.05478
G1 X102.125 Y135.4 E0.0231
G1 X101.854 Y135.564 E0.02091
G1 X101.405 Y135.569 E0.02964
G1 F2536.2 X101.109 Y135.39 E0.02161
G1 F2556.2 X100.827 Y135.062 E0.02681
G1 F2417.9 X100.617 Y134.502 E0.03919
G3 X98.472 Y129.922 I67.969 J-34.625 E0.33390 F2400
G3 X99.029 Y127.689 I1.720 J-0.757 E0.16420
G3 X100.053 Y127.903 I0.374 J0.768 E0.07377
G3 X100.171 Y128.466 I-0.406 J0.379 E0.03933 F2405
G1 F2400 X99.866 Y129.089 E0.04579
G2 X99.901 Y129.594 I0.750 J0.202 E0.03388
G3 X100.317 Y130.607 I-7.006 J3.469 E0.07233
G1 X100.458 Y130.806 E0.0161
G3 X103.007 Y131.927 I-9.846 J25.846 E0.18386
G1 F2378 X103.713 Y132.223 E0.051
G1 F2365 X104.107 Y132.57 E0.03517
G1 F2386.7 X104.264 Y132.893 E0.02384
M566 X330 Y330
G0 F19200 X104.246 Y133.092
G1 F4200 E-0.5
G0 F19200 X98.834 Y139.197
M204 P4000
M566 X300 Y300
;TYPE:WALL-INNER
G1 F4200 E0.5
G1 F1744.3 X98.461 Y139.169 E0.03397
G1 F2037.7 X97.889 Y138.795 E0.05313
G3 X97.234 Y137.709 I1.200 J-1.464 E0.08532 F2400
G1 X96.964 Y136.179 E0.10256
G3 X95.726 Y136.535 I-0.947 J-0.963 E0.08860
G2 X96.108 Y138.456 I14.508 J-1.887 E0.12936
G2 X96.449 Y138.870 I0.558 J-0.112 E0.03649
G2 X97.856 Y139.176 I3.307 J-11.817 E0.09509
G1 F2037.7 X98.461 Y139.169 E0.04704
M566 X330 Y330
G1 F4200 E-0.5
G0 F19200 X95.206 Y135.41
M204 P2400
M566 X180 Y180
;TYPE:WALL-OUTER
G1 F4200 E0.5
G1 F1741.9 X95.213 Y135.071 E0.03084
M566 X330 Y330
G1 F4200 E-0.5
G0 F19200 X113.455 Y125.922
M566 X180 Y180
G1 F4200 E0.5
G1 F2400 X113.269 Y126.294 E0.02745
G1 X112.081 Y127.471 E0.11039
G3 X110.659 Y128.250 I-2.044 J-2.044 E0.10813
G3 X108.428 Y127.581 I-0.260 J-3.187 E0.15761
G3 X107.295 Y126.337 I3.411 J-4.244 E0.11139
G1 F2100.5 X106.946 Y125.812 E0.04755
G1 X106.845 Y126.336 E0.04025
G1 F2400 X106.631 Y126.806 E0.03409
G1 X106.322 Y127.1 E0.02816
G1 X105.856 Y127.285 E0.0331
G1 X105.313 Y127.277 E0.03585
G1 X105.063 Y127.188 E0.01752
G1 F2521.4 X104.796 Y126.981 E0.02123
G1 F2728.4 X104.556 Y126.667 E0.02295
G1 F2592 X104.367 Y126.296 E0.02545
G1 F2400 X104.362 Y125.83 E0.03076
G1 X104.569 Y125.319 E0.03639
G1 X104.774 Y125.089 E0.02034
G1 X105.299 Y124.816 E0.03906
G1 X105.799 Y124.785 E0.03307
G3 X106.422 Y125.061 I-0.236 J1.375 E0.04531
G1 F2100.5 X106.808 Y125.427 E0.04012
G1 X106.805 Y124.824 E0.04548
G1 F2400 X106.843 Y124.339 E0.03211
G3 X107.218 Y123.407 I2.590 J0.501 E0.06659
G3 X108.412 Y122.137 I7.737 J6.078 E0.11518
G1 X108.751 Y121.742 E0.03436
G3 X109.486 Y121.647 I0.443 J0.538 E0.05165
G1 F1996.9 X110.176 Y122.085 E0.06484
G1 F1765.7 X110.592 Y122.545 E0.05565
G1 F1800 X110.977 Y122.912 E0.04682
G1 F1848.8 X111.054 Y123.032 E0.01222
G1 F2142.1 X111.408 Y123.477 E0.04205
G1 F2400 X112.514 Y124.579 E0.10306
G1 X112.912 Y124.987 E0.03762
G1 F2404.5 X113.307 Y125.329 E0.03443
G1 X113.444 Y125.552 E0.01724
G1 F2400 X113.455 Y125.922 E0.02444
M566 X330 Y330
G0 F19200 X113.366 Y126.101
G1 F4200 E-0.5
G0 F19200 X106.946 Y125.812
M566 X180 Y180
G1 F4200 E0.5
G1 F1867.4 X106.808 Y125.427 E0.0347
M566 X330 Y330
G1 F4200 E-0.5
G0 F19200 X112.715 Y123.955
M204 P4000
M566 X300 Y300
;TYPE:WALL-INNER
G1 F4200 E0.5
G1 F2234.5 X112.517 Y123.245 E0.05226
G1 F2700 X111.974 Y123.086 E0.0332
G1 F3014 X111.407 Y122.791 E0.0336
G1 X112.194 Y123.576 E0.05843
G1 F2445.3 X112.715 Y123.955 E0.04174
G1 F2131.6 X113.063 Y124.343 E0.03874
G1 F2167.2 X113.521 Y124.752 E0.04489
M566 X330 Y330
G1 F4200 E-0.5
G0 F19200 X112.875 Y120.475
M566 X300 Y300
G1 F4200 E0.5
G1 F2114.2 X113.106 Y120.423 E0.01774
G1 F2234.5 X113.608 Y120.128 E0.04128
M566 X330 Y330
G1 F4200 E-0.5
G0 F19200 X120.217 Y116.915
M566 X300 Y300
G1 F4200 E0.5
G1 F2400 X120.136 Y116.484 E0.02895
G1 X120.262 Y115.943 E0.03667
G1 X120.556 Y115.566 E0.03156
G3 X121.664 Y115.116 I1.377 J1.802 E0.07965
G1 X121.82 Y115.04 E0.01145
G2 X121.844 Y114.250 I-0.487 J-0.410 E0.05615
G2 X120.663 Y113.131 I-2.632 J1.595 E0.10868
G1 X120.421 Y113.071 E0.01646
G2 X119.853 Y113.433 I0.009 J0.641 E0.04622
G3 X119.404 Y114.555 I-1.263 J0.145 E0.08287
G1 X118.917 Y114.839 E0.03721
G3 X117.413 Y114.316 I-0.420 J-1.215 E0.11370
G1 X117.213 Y113.626 E0.04742
G3 X117.307 Y112.649 I2.589 J-0.244 E0.06509
G1 X117.669 Y111.935 E0.05284
G3 X119.782 Y110.503 I2.950 J2.077 E0.17243
G3 X120.980 Y110.508 I0.588 J2.746 E0.07954
G1 X119.255 Y108.784 E0.16099
G1 X118.839 Y108.534 E0.03204
G2 X117.944 Y108.757 I-0.247 J0.915 E0.06329
G1 X100.17 Y124.484 E1.56665
G2 X98.622 Y126.160 I11.308 J11.997 E0.15072
G1 F2395.6 X98.093 Y126.904 E0.06037
G1 F2378 X97.65 Y127.601 E0.05502
G1 X97.166 Y128.472 E0.06639
G1 F2395.6 X96.836 Y129.157 E0.05028
G2 X95.681 Y133.816 I13.088 J5.717 E0.31836 F2400
G2 X96.758 Y132.707 I-32.034 J-32.187 E0.10205
G3 X98.393 Y132.503 I0.940 J0.877 E0.11819
G1 F2482.8 X98.642 Y132.709 E0.02062
G1 F2763.3 X98.918 Y133.109 E0.02786
G1 F2925.5 X99.134 Y133.629 E0.03049
G1 F2422.4 X99.395 Y134.704 E0.07235
G1 F2100.5 X99.467 Y135.141 E0.0334
G1 X99.83 Y134.935 E0.03148
G1 F2178.2 X100.12 Y134.865 E0.0217
G1 F2343.6 X99.766 Y134.008 E0.06268
G1 F2634.1 X99.558 Y133.473 E0.03452
G1 F2925.5 X99.31 Y132.924 E0.03262
G1 F2823.5 X98.904 Y132.193 E0.04692
G1 F2526.3 X98.549 Y131.438 E0.05232
G1 F2400 X97.952 Y130.081 E0.09786
G1 X97.776 Y129.427 E0.04471
G1 F2395.6 X97.794 Y128.697 E0.04829
G1 F2335.1 X97.899 Y128.311 E0.02714
G1 F2322.6 X98.122 Y127.875 E0.0334
G1 F2339.4 X98.356 Y127.545 E0.0274
G1 F2356.4 X98.709 Y127.253 E0.0308
G3 X99.627 Y127.081 I0.712 J1.265 E0.06248 F2400
G1 X100.196 Y127.316 E0.04064
G3 X100.654 Y127.870 I-0.639 J0.995 E0.04802
G1 F2408.9 X100.731 Y128.132 E0.01796
