;FLAVOR:RepRap
;TIME:1857
;Filament used: 7.41853m
;Layer height: 0.3
;MINX:127.645
;MINY:92.745
;MINZ:0.3
;MAXX:190.556
;MAXY:155.648
;MAXZ:60
;ARCWELDERPROCESSED
;Exported with Cura-DuetRRF v1.2.9 plugin by Thomas Kriechbaumer
; Postprocessed by [ArcWelder](https://github.com/FormerLurker/ArcWelderLib)
; Copyright(C) 2021 - Brad Hochgesang
; Version: 1.2.0, Branch: HEAD, BuildDate: 2021-11-21T20:25:43Z
; resolution=0.05mm
; path_tolerance=5.0%
; max_radius=9999.00mm
; allow_dynamic_precision=True
; default_xyz_precision=3
; default_e_precision=5
; extrusion_rate_variance_percent=5.0%

;Generated with Cura_SteamEngine 5.3.1
T0
M82 ;absolute extrusion mode
M106 S0 ; Turn Fan off
M190 S68 ;Start heating bed
M109 S150
G28; home
G1 Z15 F6000 ; move the printer down 15mm
M104 S215 ;Start heating extruder
M109 S215 ;Wait for extruder to reach temp before proceeding

;prime the extruder
G1 X5 Y2 Z0.3 F6000; go to edge of build volume
G1 X60 E10 F1000 ;gentle purge start
G1 X110 E25 F1000; heavy purge
G1 X60
G92 E0
M83 ;relative extrusion mode
G1 F4200 E-0.8
;LAYER_COUNT:200
;LAYER:0
M107
M204 T8000
M566 X300 Y300
G0 F19200 X144.527 Y119.807 Z0.3
M204 P18000
;TYPE:SKIRT
G1 F4200 E0.8
G3 X147.265 Y117.028 I17.258 J14.265 E0.35520 F3000
G1 X168.496 Y98.23 E2.57905
G3 X170.727 Y96.826 I4.727 J5.037 E0.24110
G3 X176.378 Y98.138 I1.743 J5.317 E0.55383
G1 X184.587 Y106.34 E1.0554
G3 X186.415 Y108.956 I-4.318 J4.964 E0.29322
G3 X186.497 Y112.411 I-5.084 J1.849 E0.32031
G3 X185.543 Y114.244 I-5.286 J-1.586 E0.18909
G1 X184.909 Y114.985 E0.08869
G1 X166.278 Y136.025 E2.55597
G3 X143.832 Y143.107 I-16.849 J-14.292 E2.25736
G1 X143.063 Y142.844 E0.07392
G1 X142.175 Y142.344 E0.09269
G3 X140.221 Y139.547 I2.915 J-4.118 E0.31615
G3 X144.461 Y119.890 I21.160 J-5.721 E1.89928
G0 F2700 X144.527 Y119.807
G0 F19200 X143.961 Y119.324
G3 X146.772 Y116.471 I17.874 J14.800 E0.36465 F3000
G1 X168.012 Y97.665 E2.58014
G3 X170.486 Y96.118 I5.296 J5.718 E0.26681
G3 X172.093 Y95.806 I2.892 J10.600 E0.14899
G3 X176.186 Y97.010 I0.287 J6.583 E0.39507
G1 X176.854 Y97.566 E0.07905
G1 X185.12 Y105.821 E1.06248
G3 X186.820 Y107.974 I-5.952 J6.447 E0.25051
G3 X187.458 Y109.984 I-8.002 J3.646 E0.19221
G3 X187.450 Y111.631 I-11.087 J0.770 E0.14990
G3 X185.466 Y115.478 I-6.965 J-1.157 E0.40009
G1 X166.825 Y136.529 E2.55732
G3 X143.591 Y143.811 I-17.394 J-14.790 E2.33558
G1 X142.759 Y143.527 E0.07996
G1 X141.745 Y142.956 E0.10584
G1 X140.919 Y142.248 E0.09894
G3 X139.521 Y139.799 I4.198 J-4.020 E0.25878
G3 X143.895 Y119.407 I21.849 J-5.979 E1.97044
G0 F2700 X143.961 Y119.324
G1 F4200 E-0.8
;MESH:3DBenchy.stl
G0 F19200 X149.054 Y120.448
M204 P2000
M566 X240 Y240
;TYPE:WALL-OUTER
G1 F4200 E0.8
G2 X143.208 Y133.571 I12.425 J13.399 E1.34357 F3000
G1 F2762.4 X143.278 Y134.33 E0.07529
G1 F2629 X143.344 Y134.121 E0.02275
G1 F2843.3 X143.654 Y133.67 E0.05252
G1 F3000 X145.362 Y131.969 E0.21924
G1 X145.77 Y131.526 E0.05477
G1 X146.144 Y131.313 E0.03914
G1 X146.59 Y131.306 E0.04057
G1 X147.082 Y131.571 E0.05082
G3 X147.590 Y132.406 I-0.973 J1.164 E0.09009
G3 X148.128 Y135.616 I-187.024 J32.996 E0.29602
G3 X149.319 Y134.586 I2.580 J1.780 E0.14462
G3 X149.834 Y134.559 I0.299 J0.777 E0.04746
G1 F2692.4 X150 Y134.526 E0.01715
G1 F2164.9 X150.353 Y134.615 E0.04588
G1 X150.23 Y134.288 E0.04403
G1 F2692.4 X150.234 Y134.071 E0.02199
G2 X149.547 Y132.531 I-6.597 J2.020 E0.15365 F3000
G3 X147.206 Y127.359 I61.034 J-30.742 E0.51649
G3 X148.030 Y124.870 I2.166 J-0.664 E0.25447
G3 X149.075 Y124.916 I0.482 J0.949 E0.09881
G1 X149.448 Y125.272 E0.0469
G3 X149.468 Y125.991 I-0.722 J0.380 E0.06766
G1 X149.136 Y126.585 E0.06189
G2 X149.211 Y127.363 I1.060 J0.290 E0.07228
G3 X149.671 Y128.497 I-6.555 J3.319 E0.11140
G1 X149.786 Y128.681 E0.01973
G2 X150.604 Y129.060 I1.334 J-1.806 E0.08240
G1 X152.866 Y130.09 E0.22605
G1 X152.87 Y130.104 E0.00132
G1 X153.706 Y130.435 E0.08178
G1 F3100 X154.16 Y130.761 E0.04919
G1 F3184 X154.472 Y131.09 E0.03885
G1 F3078.6 X154.644 Y131.479 E0.0377
G1 F3000 X154.575 Y131.854 E0.03468
G3 X153.476 Y132.478 I-1.029 J-0.533 E0.12084
G3 X152.417 Y131.993 I0.480 J-2.447 E0.10666
G3 X151.075 Y131.404 I7.417 J-18.722 E0.13332
G2 X152.013 Y133.267 I56.165 J-27.111 E0.18978
G1 X152.141 Y133.951 E0.06329
G1 X152.059 Y134.383 E0.03999
G3 X151.693 Y134.739 I-0.703 J-0.356 E0.04699
G1 X151.285 Y134.815 E0.03775
G1 F2592.3 X150.765 Y134.817 E0.05473
G1 F2097.7 X150.504 Y134.767 E0.03456
G1 F2250 X150.583 Y135.226 E0.05648
G1 F2828.9 X150.522 Y135.824 E0.05798
G1 F3000 X150.279 Y136.233 E0.04327
G1 X148.153 Y138.337 E0.27204
G1 X147.741 Y138.51 E0.04064
G3 X147.007 Y138.274 I-0.103 J-0.939 E0.07169
G1 X146.633 Y137.838 E0.05224
G1 X146.441 Y137.323 E0.04999
G3 X145.900 Y134.174 I75.572 J-14.604 E0.29061
G3 X144.538 Y135.335 I-2.790 J-1.894 E0.16482
G3 X143.823 Y135.218 I-0.233 J-0.822 E0.06769
G1 F2910 X143.455 Y134.875 E0.04717
G1 F2682.7 X143.288 Y134.546 E0.03753
G1 F2698.9 X143.261 Y134.993 E0.04527
G1 F2929.1 X143.299 Y135.772 E0.07265
G2 X143.882 Y138.756 I18.338 J-2.034 E0.27683 F3000
G1 X144.216 Y139.191 E0.04988
G2 X144.741 Y139.484 I1.010 J-1.192 E0.05494
G2 X147.040 Y139.938 I4.943 J-18.984 E0.21322
G2 X148.597 Y140.072 I2.567 J-20.718 E0.14196 F3004
G2 X162.887 Y134.207 I0.858 J-18.251 E1.45165 F3000
G1 X182.671 Y111.861 E2.71442
G2 X182.419 Y109.467 I-1.535 J-1.049 E0.23857
G1 X179.359 Y106.41 E0.39339
G1 F2256.8 X178.642 Y106.039 E0.0976
G1 X178.875 Y106.811 E0.09749
G1 F3000 X178.906 Y106.866 E0.00574
G3 X178.252 Y111.101 I-2.837 J1.730 E0.42221
G3 X176.271 Y111.970 I-2.018 J-1.907 E0.20159
G1 F3028.5 X175.9 Y111.928 E0.03364
G1 F3139.2 X175.411 Y111.656 E0.04863
G1 F3108.6 X175.187 Y111.386 E0.03079
G1 F3004 X175.078 Y110.978 E0.03836
G1 F3000 X175.16 Y110.511 E0.04312
G1 X175.443 Y110.177 E0.03982
G3 X176.653 Y109.755 I1.580 J2.584 E0.11719
G1 X176.87 Y109.647 E0.02205
G2 X177.360 Y108.348 I-0.801 J-1.044 E0.13263
G1 X177.137 Y107.795 E0.05423
G1 X176.63 Y107.1 E0.07824
G2 X175.491 Y106.181 I-3.682 J3.398 E0.13343
G2 X174.462 Y106.010 I-0.728 J1.199 E0.09693
G2 X173.439 Y106.931 I0.378 J1.449 E0.12990
G1 X173.438 Y107.416 E0.04411
G3 X171.705 Y108.031 I-1.049 J-0.206 E0.20160
G3 X171.759 Y105.767 I1.804 J-1.090 E0.21730
G3 X174.680 Y103.974 I3.149 J1.855 E0.32456
G3 X176.088 Y104.248 I0.064 J3.426 E0.13118
G1 F3193.1 X176.795 Y104.693 E0.07138
G1 F3449.8 X176.9 Y104.778 E0.01068
G1 F2861.5 X177.553 Y104.925 E0.06382
G1 X177.319 Y104.297 E0.0639
G1 F3230.1 X176.587 Y103.641 E0.08303
G1 F3000 X173.716 Y100.773 E0.36908
G1 X173.172 Y100.426 E0.05868
G2 X171.438 Y100.628 I-0.689 J1.628 E0.16545
G1 X149.134 Y120.378 E2.70951
G0 F2700 X149.054 Y120.448
M566 X300 Y300
G0 F19200 X148.837 Y120.655
G1 F4200 E-0.8
G0 F19200 X163.654 Y113.729
M566 X240 Y240
G1 F4200 E0.8
G3 X165.166 Y113.047 I1.752 J1.866 E0.15374 F3000
G3 X166.306 Y113.802 I0.018 J1.211 E0.13173
G3 X166.247 Y114.519 I-0.801 J0.295 E0.06701
G1 F2545 X165.979 Y115.036 E0.06243
G1 F2162.8 X165.505 Y115.323 E0.0699
G1 F2113.6 X164.789 Y115.44 E0.09365
G1 F2109.6 X164.688 Y115.561 E0.02038
G2 X164.926 Y116.306 I0.487 J0.255 E0.11128
G1 X165.34 Y116.411 E0.05524
G1 F2103.7 X165.623 Y116.385 E0.03686
G1 F2111.6 X165.893 Y116.292 E0.0369
G1 F2156.5 X166.449 Y115.946 E0.08286
G1 F2369.4 X166.788 Y115.876 E0.03986
G1 F2776.1 X167.263 Y115.94 E0.04711
G3 X167.936 Y116.821 I-0.450 J1.041 E0.10501 F3000
G1 F3070.2 X167.923 Y117.097 E0.02456
G1 F3197.7 X167.814 Y117.39 E0.02667
G1 F3024.4 X167.524 Y117.902 E0.05309
G1 F2811.1 X167.419 Y118.194 E0.03012
G2 X167.997 Y118.658 I0.376 J0.124 E0.09325 F2797
G1 X168.209 Y118.381 E0.03403
G1 F2811.1 X168.261 Y118.175 E0.02062
G1 F2921.5 X168.47 Y117.544 E0.06208
G1 F3012.1 X168.696 Y117.235 E0.03468
G1 F3000 X168.969 Y117.113 E0.0272
G1 X169.443 Y117.102 E0.04312
G1 F3008.1 X169.736 Y117.195 E0.02788
G1 F3166 X170.124 Y117.56 E0.04591
G1 F3157 X170.292 Y117.954 E0.03702
G3 X169.659 Y119.666 I-2.493 J0.051 E0.16974 F3000
G3 X167.875 Y120.895 I-2.807 J-2.165 E0.20040
G3 X166.071 Y120.252 I-0.387 J-1.767 E0.18272
G3 X165.510 Y119.424 I1.425 J-1.570 E0.09156
G3 X165.498 Y118.681 I1.151 J-0.390 E0.06838
G1 X165.156 Y118.764 E0.03201
G1 F2865.2 X164.64 Y118.716 E0.04935
G1 F2622.8 X163.678 Y118.287 E0.10958
G1 F2516.3 X163.294 Y118.003 E0.05179
G1 F2604.4 X162.892 Y117.554 E0.06314
G1 F2839.7 X162.648 Y116.898 E0.06725
G3 X163.063 Y114.345 I2.428 J-0.916 E0.24574 F3000
G1 X163.594 Y113.791 E0.06979
G0 F2700 X163.654 Y113.729
M566 X300 Y300
G0 F19200 X163.897 Y113.553
G1 F4200 E-0.8
G0 F19200 X167.661 Y110.165
M566 X240 Y240
G1 F4200 E0.8
G3 X168.038 Y109.599 I1.024 J0.273 E0.06265 F3000
G1 X168.521 Y109.37 E0.04862
G1 X168.954 Y109.429 E0.03974
G3 X169.626 Y110.078 I-1.108 J1.819 E0.08549
G3 X172.663 Y113.151 I-58.164 J60.520 E0.39308
G2 X172.959 Y113.276 I0.252 J-0.185 E0.03031
G1 X173.306 Y113.078 E0.03634
G1 X173.838 Y112.396 E0.07867
G3 X174.483 Y112.049 I0.734 J0.592 E0.06795
G1 F3065.9 X174.873 Y112.134 E0.03552
G1 F3139.2 X175.315 Y112.437 E0.04658
G1 F3078.6 X175.483 Y112.644 E0.02363
G1 F3008.1 X175.61 Y113.135 E0.046
G3 X175.338 Y113.780 I-0.987 J-0.036 E0.06468 F3000
G2 X174.303 Y114.744 I4.291 J5.644 E0.12879
G2 X171.845 Y117.204 I98.969 J101.346 E0.31628
G1 X171.46 Y117.429 E0.04056
G3 X171.011 Y117.413 I-0.200 J-0.699 E0.04129
G1 F3100 X170.745 Y117.251 E0.02741
G1 F3206.9 X170.417 Y116.892 E0.04137
G1 F3100 X170.284 Y116.574 E0.03034
G1 F3000 X170.268 Y116.409 E0.01508
G3 X170.502 Y115.841 I1.089 J0.117 E0.05643
G3 X171.463 Y114.873 I5.177 J4.179 E0.12422
G1 X171.558 Y114.751 E0.01406
G1 X171.155 Y114.315 E0.054
G1 X168.586 Y111.738 E0.33094
G3 X167.827 Y110.956 I1.895 J-2.598 E0.09942
G1 X167.655 Y110.532 E0.04161
G1 X167.66 Y110.272 E0.02365
G0 F2700 X167.661 Y110.165
M566 X300 Y300
G0 F19200 X167.792 Y109.896
G1 F4200 E-0.8
G0 F19200 X177.556 Y104.933
M566 X240 Y240
G1 F4200 E0.8
G1 F1870.9 X178.136 Y105.492 E0.11748
G1 F1847.7 X178.642 Y106.039 E0.11004
M566 X300 Y300
G1 F4200 E-0.8
G0 F19200 X163.16 Y113.172
M204 P3400
;TYPE:WALL-INNER
G1 F4200 E0.8
G3 X165.223 Y112.305 I2.180 J2.300 E0.20789 F3000
G1 X165.853 Y112.412 E0.05812
G3 X167.089 Y113.906 I-0.702 J1.839 E0.18467
G3 X166.662 Y115.208 I-1.593 J0.199 E0.12847
G3 X168.224 Y115.738 I0.367 J1.485 E0.15818
G3 X168.613 Y116.447 I-1.415 J1.237 E0.07392
G1 X168.849 Y116.379 E0.02234
G1 X169.528 Y116.362 E0.06177
G3 X169.915 Y115.374 I1.908 J0.178 E0.09745
G1 X170.509 Y114.721 E0.08029
G1 X168.07 Y112.274 E0.31422
G3 X166.967 Y110.854 I1.957 J-2.658 E0.16574
G3 X167.816 Y108.864 I1.660 J-0.468 E0.21246
G1 X168.38 Y108.639 E0.05523
G1 X168.636 Y108.62 E0.02335
G1 X169.194 Y108.725 E0.05164
G1 X169.554 Y108.928 E0.03759
G1 F2442 X170.037 Y109.139 E0.05889
G1 F2057.1 X170.3 Y109.457 E0.05473
G1 F2040.2 X170.56 Y109.698 E0.04741
G1 F2225.3 X170.746 Y110.018 E0.04538
G1 F2708.7 X170.916 Y110.302 E0.03334
G2 X172.952 Y112.321 I64.001 J-62.504 E0.26079 F3000
G1 X173.417 Y111.767 E0.06578
G3 X174.382 Y111.315 I1.139 J1.175 E0.09826
G1 X174.335 Y110.938 E0.03455
G1 X174.432 Y110.33 E0.056
G3 X175.082 Y109.523 I1.567 J0.597 E0.09563
G3 X176.435 Y109.043 I1.792 J2.905 E0.13130
G2 X176.496 Y108.179 I-0.458 J-0.466 E0.08594
G2 X175.151 Y106.849 I-3.332 J2.024 E0.17362
G2 X174.174 Y107.111 I-0.369 J0.577 E0.10379
G3 X173.872 Y108.252 I-1.734 J0.152 E0.10959
G1 X173.424 Y108.691 E0.05705
G3 X171.736 Y108.930 I-1.076 J-1.519 E0.16064
G1 F2556.7 X171.441 Y108.919 E0.0315
G1 F2121.7 X171.264 Y108.855 E0.0242
G1 F2044 X170.901 Y108.488 E0.06891
G1 F2442 X170.855 Y107.997 E0.0551
G3 X171.162 Y105.323 I2.776 J-1.036 E0.25414 F3000
G3 X172.133 Y104.203 I4.010 J2.496 E0.13523
G1 X172.969 Y103.644 E0.09147
G1 X173.791 Y103.342 E0.07965
G3 X175.158 Y103.263 I0.915 J3.968 E0.12498
G1 X173.232 Y101.341 E0.24747
G2 X171.865 Y101.244 I-0.740 J0.752 E0.13498
G1 X149.558 Y120.996 E2.70983
G2 X147.116 Y123.799 I11.292 J12.303 E0.33881
G1 F2568.5 X147.02 Y124.146 E0.03825
G1 F1991.1 X146.962 Y124.476 E0.04591
G1 X147.258 Y124.36 E0.04357
G1 F2568.5 X147.59 Y124.27 E0.03654
G3 X148.824 Y124.041 I0.931 J1.575 E0.11626 F3000
G1 X149.413 Y124.253 E0.05693
G3 X150.141 Y124.993 I-0.926 J1.639 E0.09545
G1 F2814.6 X150.343 Y125.563 E0.05862
G1 F2439.3 X150.382 Y125.911 E0.03917
G1 X150.607 Y125.644 E0.03905
G1 F2814.6 X151.041 Y125.214 E0.05922
G3 X151.739 Y124.870 I1.203 J1.562 E0.07112 F3000
G1 X152.418 Y124.875 E0.06176
G3 X153.934 Y122.957 I1.609 J-0.286 E0.25241
G3 X157.059 Y120.610 I2.343 J-0.135 E0.41971
G3 X157.877 Y118.827 I3.719 J0.627 E0.18056
G3 X159.152 Y117.494 I6.976 J5.396 E0.16799
G1 X159.599 Y116.942 E0.0646
G3 X160.958 Y116.473 I1.234 J1.372 E0.13426
G3 X161.880 Y116.913 I-0.477 J2.185 E0.09353
G3 X161.735 Y115.725 I3.507 J-1.031 E0.10920
G1 X161.925 Y114.843 E0.08206
G3 X163.086 Y113.249 I3.844 J1.580 E0.18086
G0 F2700 X163.16 Y113.172
G1 F4200 E-0.8
G0 F19200 X160.535 Y117.238
M204 P2000
M566 X240 Y240
;TYPE:WALL-OUTER
G1 F4200 E0.8
G1 F3000 X160.835 Y117.221 E0.02733
G1 F2891.2 X161.336 Y117.412 E0.0506
G1 F2695.7 X162.032 Y118.013 E0.09308
G1 F2524.9 X162.195 Y118.144 E0.0226
G1 F2480 X162.675 Y118.635 E0.07554
G1 F2474.5 X163.028 Y118.964 E0.05321
G1 F2685.9 X163.538 Y119.599 E0.08274
G1 F3000 X165.425 Y121.494 E0.24322
G1 X165.918 Y121.923 E0.05944
G1 X166.123 Y122.297 E0.03879
G3 X165.792 Y123.288 I-1.312 J0.113 E0.09793
G2 X164.386 Y124.652 I19.305 J21.306 E0.17819
G1 X163.625 Y125.237 E0.0873
G3 X160.521 Y125.250 I-1.563 J-2.626 E0.29554
G3 X158.357 Y123.236 I3.021 J-5.415 E0.27138
G1 F2752.2 X157.923 Y122.544 E0.08098
G1 F2622.8 X157.936 Y122.785 E0.02511
G1 F2846.9 X157.813 Y123.365 E0.05682
G1 F3000 X157.578 Y123.813 E0.04601
G1 X157.147 Y124.212 E0.05342
G3 X156.005 Y124.437 I-0.867 J-1.391 E0.10791
G1 F2731.9 X155.206 Y124.15 E0.08479
G1 F2279.9 X154.905 Y123.976 E0.04161
G1 F2387.2 X155.003 Y124.483 E0.05902
G1 F2887.5 X154.999 Y124.559 E0.00719
G3 X155.469 Y126.508 I-16.074 J4.907 E0.18241 F3000
G3 X157.441 Y127.002 I-12.064 J52.340 E0.18499
G1 X157.914 Y127.3 E0.05084
G1 X158.141 Y127.652 E0.03809
G1 X158.169 Y128.06 E0.03719
G1 X157.975 Y128.521 E0.04549
G3 X157.007 Y128.885 I-0.803 J-0.667 E0.09824
G3 X156.036 Y128.637 I0.334 J-3.332 E0.09140
G1 X156.275 Y129.384 E0.07133
G1 X156.271 Y129.994 E0.05548
G3 X155.539 Y130.705 I-0.818 J-0.110 E0.09938
G1 F3016.2 X155.139 Y130.667 E0.03635
G1 F3148.1 X154.733 Y130.379 E0.04314
G1 F3134.8 X154.473 Y129.946 E0.04396
G1 F3000 X154.224 Y128.992 E0.08967
G1 X154.072 Y128.345 E0.06045
G2 X153.758 Y127.990 I-0.662 J0.269 E0.04373
G3 X151.801 Y127.478 I11.615 J-48.393 E0.18403
G3 X151.218 Y126.948 I0.499 J-1.134 E0.07257
G1 X151.132 Y126.444 E0.0465
G1 X151.196 Y126.207 E0.02233
G3 X151.827 Y125.624 I0.941 J0.386 E0.08002
G1 X152.359 Y125.612 E0.0484
G1 X153.443 Y125.906 E0.10215
G3 X153.164 Y124.318 I3.263 J-1.392 E0.14808
G1 X153.344 Y123.983 E0.03459
G1 X153.697 Y123.744 E0.03877
G1 X154.131 Y123.685 E0.03983
G1 F2647.7 X154.634 Y123.776 E0.05268
G1 F2223.1 X154.839 Y123.894 E0.02903
G1 X154.768 Y123.661 E0.02989
G1 F2647.7 X154.683 Y123.115 E0.05694
G3 X154.775 Y122.238 I1.518 J-0.284 E0.08103 F3000
G1 X155.085 Y121.744 E0.05304
G3 X156.938 Y121.358 I1.194 J1.092 E0.18332
G1 F2956.3 X157.367 Y121.624 E0.04659
G1 F2811.1 X157.709 Y121.945 E0.04553
G1 F2850.6 X157.743 Y120.963 E0.09405
G1 F3000 X157.911 Y120.231 E0.06831
G3 X158.991 Y118.672 I4.772 J2.152 E0.17345
G2 X160.121 Y117.479 I-3.915 J-4.840 E0.14977
G1 X160.443 Y117.291 E0.03391
G0 F2700 X160.535 Y117.238
M566 X300 Y300
G0 F19200 X160.835 Y117.221
G1 F4200 E-0.8
G0 F19200 X157.734 Y121.975
M566 X240 Y240
G1 F4200 E0.8
G1 F2507.9 X157.923 Y122.544 E0.06523
M566 X300 Y300
G1 F4200 E-0.8
G0 F19200 X158.176 Y124.264
M204 P3400
;TYPE:WALL-INNER
G1 F4200 E0.8
G1 F3000 X157.668 Y124.764 E0.06483
G3 X155.930 Y125.180 I-1.404 J-2.026 E0.16604
G1 X156.115 Y125.883 E0.06611
G3 X157.852 Y126.379 I-6.759 J26.958 E0.16450
G3 X158.487 Y126.832 I-0.797 J1.789 E0.07120
G1 X158.829 Y127.368 E0.05783
G3 X157.019 Y129.629 I-1.631 J0.549 E0.31289
G3 X155.386 Y131.445 I-1.609 J0.196 E0.25285
