; HEADER_BLOCK_START
; generated by OrcaSlicer 2.1.1 on 2024-07-24 at 18:19:02
; total layer number: 91
; filament_density: 1.27
; filament_diameter: 1.75
; max_z_height: 20.12
; HEADER_BLOCK_END

; THUMBNAIL_BLOCK_START

;
; THUMBNAIL_BLOCK_END

; external perimeters extrusion width = 0.44mm
; perimeters extrusion width = 0.44mm
; infill extrusion width = 0.62mm
; solid infill extrusion width = 0.44mm
; top infill extrusion width = 0.44mm
; first layer extrusion width = 0.48mm

; external perimeters extrusion width = 0.44mm
; perimeters extrusion width = 0.44mm
; infill extrusion width = 0.62mm
; solid infill extrusion width = 0.44mm
; top infill extrusion width = 0.44mm
; first layer extrusion width = 0.48mm

; external perimeters extrusion width = 0.44mm
; perimeters extrusion width = 0.44mm
; infill extrusion width = 0.62mm
; solid infill extrusion width = 0.44mm
; top infill extrusion width = 0.44mm
; first layer extrusion width = 0.48mm

; external perimeters extrusion width = 0.44mm
; perimeters extrusion width = 0.44mm
; infill extrusion width = 0.62mm
; solid infill extrusion width = 0.44mm
; top infill extrusion width = 0.44mm
; first layer extrusion width = 0.48mm

; external perimeters extrusion width = 0.44mm
; perimeters extrusion width = 0.44mm
; infill extrusion width = 0.62mm
; solid infill extrusion width = 0.44mm
; top infill extrusion width = 0.44mm
; first layer extrusion width = 0.48mm

; external perimeters extrusion width = 0.44mm
; perimeters extrusion width = 0.44mm
; infill extrusion width = 0.62mm
; solid infill extrusion width = 0.44mm
; top infill extrusion width = 0.44mm
; first layer extrusion width = 0.48mm

; EXECUTABLE_BLOCK_START
M73 P0 R107
M201 X18000 Y18000 Z400 E9000
M203 X19200 Y19200 Z2400 E6000
M204 P9000 T9000 ; sets acceleration (P, T), mm/sec^2
M566 X1500.00 Y1500.00 Z15.00 E360.00 ; sets the jerk limits, mm/min
;TYPE:Custom
G90 ; use absolute coordinates
M83 ; extruder relative mode
M106 S0 ; Turn Fan off
M204 S9000 T9000
M190 S80 ; set bed temp
M109 S160 ; set extruder temp
M557 P5 X54.99:181.301 Y95.7718:186.21 ; dynamic meshing
G28 ; home all
G1 Z15 F6000 ; move the printer down 15mm
G1 Y1.0 Z0.3 F4000 ; move print head up
M109 S255 ; set extruder temp

M190 S80 ; wait for bed temp
M109 S255 ; wait for extruder temp
;prime the extruder
G1 X5 Y2 Z0.3 F6000; go to edge of build volume
G1 X60 E10 F1000 ;gentle purge start
G1 X110 E25 F1000; heavy purge
G1 X60;
G90
G21
M83 ; use relative distances for extrusion
; filament start gcode
;LAYER_CHANGE
;Z:0.32
;HEIGHT:0.32
;BEFORE_LAYER_CHANGE
;0.32
G92 E0

G1 E-.7 F3000
;AFTER_LAYER_CHANGE
;0.32
;_SET_FAN_SPEED_CHANGING_LAYER
M204 P2000
M205 X8 Y8
M204 T2000
G1 X56.635 Y96.182 F19200
G1 Z.32
G1 E.7 F3000
;TYPE:Skirt
;WIDTH:0.48
G1 X57.607 Y95.977 E.05326
G1 X116.774 Y95.983 E3.17305
G1 X178.847 Y100.187 E3.3365
G1 X180.135 Y100.667 E.07371
G1 X180.951 Y101.773 E.07371
G1 X181.095 Y102.593 E.04467
G1 X181.095 Y183.593 E4.34393
G1 X180.703 Y184.911 E.07371
G1 X179.655 Y185.8 E.07371
G1 X178.684 Y186.004 E.05326
G1 X57.676 Y186.004 E6.48951
G1 X56.358 Y185.613 E.07371
G1 X55.469 Y184.565 E.07371
G1 X55.264 Y183.596 E.05313
G1 X55.196 Y98.389 E4.56954
G1 X55.587 Y97.071 E.07371
G1 X56.605 Y96.208 E.07156
; printing object C1 top bracket.stl id:1481763717179 copy 0
G1 E-.7
G1 X60.318 Y97.09 Z.52 F19200
G1 X109.792 Y108.848 Z.52
G1 Z.32
G1 E.7 F3000
;TYPE:Inner wall
;WIDTH:0.48
G1 X109.937 Y108.874 E.00789
G1 X114.985 Y108.874 E.27075
G1 X115.548 Y108.686 E.03183
G1 X115.548 Y115.957 E.38989
G1 X58.67 Y115.957 E3.05033
G1 X58.67 Y99.451 E.88515
G1 X108.908 Y99.451 E2.69424
G1 X108.908 Y107.999 E.4584
G1 X109.072 Y108.402 E.02334
G1 X109.276 Y108.634 E.01655
G1 X109.575 Y108.808 E.01854
G1 X109.753 Y108.841 E.00969
G1 X109.864 Y108.45 F19200
G1 F3000
G1 X109.937 Y108.463 E.00395
G1 X114.985 Y108.463 E.27075
G1 X115.356 Y108.339 E.02093
G1 X115.583 Y107.951 E.02415
;WIDTH:0.459037
G1 X115.589 Y107.846 E.00534
;WIDTH:0.453009
G1 X115.589 Y99.067 E.43992
G1 X115.549 Y99.027 E.00283
G1 X115.973 Y99.027 E.02126
G1 X115.973 Y99.219 E.00963
G1 X115.973 Y107.795 E.42976
;WIDTH:0.48
G1 X115.96 Y108.641 E.04538
G1 X115.96 Y116.368 E.41436
G1 X58.258 Y116.368 E3.09445
G1 X58.258 Y99.04 E.92926
G1 X109.342 Y99.04 E2.73955
G1 X109.32 Y99.067 E.00186
G1 X109.32 Y107.704 E.46321
G1 X109.35 Y108.036 E.01787
G1 X109.472 Y108.251 E.01329
G1 X109.72 Y108.423 E.01617
G1 X109.825 Y108.442 E.00575
G1 X109.937 Y108.051 F19200
;TYPE:Outer wall
G1 F3000
G1 X109.782 Y107.981 E.00913
G1 X109.731 Y107.846 E.00775
G1 X109.731 Y99.067 E.47081
G1 X109.834 Y98.986 E.007
;WIDTH:0.435209
G1 X109.937 Y98.906 E.00624
;WIDTH:0.390419
G1 X114.985 Y98.906 E.21179
;WIDTH:0.435209
G1 X115.088 Y98.986 E.00624
;WIDTH:0.48
G1 X115.191 Y99.067 E.007
G1 X115.191 Y107.846 E.47081
G1 X115.109 Y108.01 E.00987
G1 X114.985 Y108.051 E.00698
G1 X109.977 Y108.051 E.26861
G1 E-.7
G1 X112.232 Y111.13 Z.52 F19200
G1 X116.371 Y116.779 Z.52
G1 Z.32
G1 E.7 F3000
G1 X57.847 Y116.779 E3.13857
G1 X57.847 Y98.629 E.97338
G1 X109.293 Y98.629 E2.75899
G1 X109.615 Y98.606 E.0173
;WIDTH:0.435209
G1 X109.937 Y98.584 E.01541
;WIDTH:0.390419
G1 X114.985 Y98.584 E.21179
;WIDTH:0.435209
G1 X115.307 Y98.606 E.01541
;WIDTH:0.48
G2 X116.371 Y98.629 I.693 J-7.631 E.05712
G1 X116.371 Y116.739 E.97124
G1 E-.7
G1 X114.763 Y113.278 Z.52 F19200
G1 X108.785 Y100.407 Z.52
G1 Z.32
G1 E.7 F3000
;TYPE:Bottom surface
;WIDTH:0.480112
G1 F6000
G1 X108.138 Y99.76 E.04906
G1 X107.556 Y99.76 E.03121
G1 X108.6 Y100.803 E.07916
G1 X108.6 Y101.385 E.03121
G1 X106.975 Y99.76 E.1233
G1 X106.393 Y99.76 E.03121
G1 X108.6 Y101.967 E.16744
G1 X108.6 Y102.549 E.03121
G1 X105.811 Y99.76 E.21158
G1 X105.229 Y99.76 E.03121
G1 X108.6 Y103.131 E.25572
G1 X108.6 Y103.713 E.03121
G1 X104.647 Y99.76 E.29987
G1 X104.065 Y99.76 E.03121
G1 X108.6 Y104.295 E.34401
G1 X108.6 Y104.876 E.03121
G1 X103.483 Y99.76 E.38815
G1 X102.902 Y99.76 E.03121
G1 X108.6 Y105.458 E.43229
G1 X108.6 Y106.04 E.03121
G1 X102.32 Y99.76 E.47643
G1 X101.738 Y99.76 E.03121
G1 X108.6 Y106.622 E.52057
G1 X108.6 Y107.204 E.03121
G1 X101.156 Y99.76 E.56472
G1 X100.574 Y99.76 E.03121
G1 X108.799 Y107.985 E.62399
G1 E-.7 F3000
G1 X112.568 Y108.586 Z.52 F19200
G1 X115.029 Y108.978 Z.52
G1 Z.32
G1 E.7 F3000
G1 F6000
G1 X115.24 Y109.189 E.01598
G1 X115.24 Y109.771 E.03121
G1 X114.652 Y109.183 E.04463
G1 X114.07 Y109.183 E.03121
G1 X115.24 Y110.353 E.08877
G1 X115.24 Y110.935 E.03121
G1 X113.488 Y109.183 E.13291
G1 X112.906 Y109.183 E.03121
G1 X115.24 Y111.516 E.17706
G1 X115.24 Y112.098 E.03121
G1 X112.324 Y109.183 E.2212
G1 X111.742 Y109.183 E.03121
G1 X115.24 Y112.68 E.26534
G1 X115.24 Y113.262 E.03121
G1 X111.16 Y109.183 E.30948
G1 X110.579 Y109.183 E.03121
G1 X115.24 Y113.844 E.35362
G1 X115.24 Y114.426 E.03121
G1 X109.799 Y108.985 E.41278
G1 E-.7 F3000
G1 X112.361 Y111.812 Z.52 F19200
G1 X115.425 Y115.193 Z.52
G1 Z.32
G1 E.7 F3000
G1 F6000
G1 X99.992 Y99.76 E1.17077
G1 X99.41 Y99.76 E.03121
G1 X115.24 Y115.589 E1.20087
G1 X115.24 Y115.648 E.00315
G1 X114.717 Y115.648 E.02807
G1 X98.829 Y99.76 E1.20532
G1 X98.247 Y99.76 E.03121
G1 X114.135 Y115.648 E1.20532
G1 X113.553 Y115.648 E.03121
G1 X97.665 Y99.76 E1.20532
G1 X97.083 Y99.76 E.03121
G1 X112.971 Y115.648 E1.20532
G1 X112.389 Y115.648 E.03121
G1 X96.501 Y99.76 E1.20532
G1 X95.919 Y99.76 E.03121
G1 X111.807 Y115.648 E1.20532
G1 X111.225 Y115.648 E.03121
G1 X95.337 Y99.76 E1.20532
G1 X94.756 Y99.76 E.03121
G1 X110.644 Y115.648 E1.20532
G1 X110.062 Y115.648 E.03121
G1 X94.174 Y99.76 E1.20532
G1 X93.592 Y99.76 E.03121
G1 X109.48 Y115.648 E1.20532
G1 X108.898 Y115.648 E.03121
G1 X93.01 Y99.76 E1.20532
G1 X92.428 Y99.76 E.03121
G1 X108.316 Y115.648 E1.20532
G1 X107.734 Y115.648 E.03121
G1 X91.846 Y99.76 E1.20532
G1 X91.264 Y99.76 E.03121
G1 X107.152 Y115.648 E1.20532
G1 X106.571 Y115.648 E.03121
G1 X90.682 Y99.76 E1.20532
G1 X90.101 Y99.76 E.03121
G1 X105.989 Y115.648 E1.20532
G1 X105.407 Y115.648 E.03121
G1 X89.519 Y99.76 E1.20532
G1 X88.937 Y99.76 E.03121
G1 X104.825 Y115.648 E1.20532
G1 X104.243 Y115.648 E.03121
G1 X88.355 Y99.76 E1.20532
G1 X87.773 Y99.76 E.03121
G1 X103.661 Y115.648 E1.20532
G1 X103.079 Y115.648 E.03121
G1 X87.191 Y99.76 E1.20532
G1 X86.609 Y99.76 E.03121
G1 X102.498 Y115.648 E1.20532
G1 X101.916 Y115.648 E.03121
G1 X86.028 Y99.76 E1.20532
G1 X85.446 Y99.76 E.03121
G1 X101.334 Y115.648 E1.20532
G1 X100.752 Y115.648 E.03121
G1 X84.864 Y99.76 E1.20532
G1 X84.282 Y99.76 E.03121
G1 X100.17 Y115.648 E1.20532
G1 X99.588 Y115.648 E.03121
G1 X83.7 Y99.76 E1.20532
G1 X83.118 Y99.76 E.03121
G1 X99.006 Y115.648 E1.20532
G1 X98.425 Y115.648 E.03121
G1 X82.536 Y99.76 E1.20532
G1 X81.955 Y99.76 E.03121
G1 X97.843 Y115.648 E1.20532
G1 X97.261 Y115.648 E.03121
G1 X81.373 Y99.76 E1.20532
G1 X80.791 Y99.76 E.03121
G1 X96.679 Y115.648 E1.20532
G1 X96.097 Y115.648 E.03121
G1 X80.209 Y99.76 E1.20532
G1 X79.627 Y99.76 E.03121
G1 X95.515 Y115.648 E1.20532
G1 X94.933 Y115.648 E.03121
G1 X79.045 Y99.76 E1.20532
G1 X78.463 Y99.76 E.03121
G1 X94.351 Y115.648 E1.20532
G1 X93.77 Y115.648 E.03121
G1 X77.882 Y99.76 E1.20532
G1 X77.3 Y99.76 E.03121
G1 X93.188 Y115.648 E1.20532
G1 X92.606 Y115.648 E.03121
G1 X76.718 Y99.76 E1.20532
G1 X76.136 Y99.76 E.03121
G1 X92.024 Y115.648 E1.20532
G1 X91.442 Y115.648 E.03121
G1 X75.554 Y99.76 E1.20532
G1 X74.972 Y99.76 E.03121
G1 X90.86 Y115.648 E1.20532
G1 X90.278 Y115.648 E.03121
G1 X74.39 Y99.76 E1.20532
G1 X73.808 Y99.76 E.03121
G1 X89.697 Y115.648 E1.20532
G1 X89.115 Y115.648 E.03121
G1 X73.227 Y99.76 E1.20532
G1 X72.645 Y99.76 E.03121
G1 X88.533 Y115.648 E1.20532
G1 X87.951 Y115.648 E.03121
M73 P0 R106
G1 X72.063 Y99.76 E1.20532
G1 X71.481 Y99.76 E.03121
G1 X87.369 Y115.648 E1.20532
G1 X86.787 Y115.648 E.03121
G1 X70.899 Y99.76 E1.20532
G1 X70.317 Y99.76 E.03121
G1 X86.205 Y115.648 E1.20532
G1 X85.624 Y115.648 E.03121
G1 X69.735 Y99.76 E1.20532
G1 X69.154 Y99.76 E.03121
G1 X85.042 Y115.648 E1.20532
G1 X84.46 Y115.648 E.03121
G1 X68.572 Y99.76 E1.20532
G1 X67.99 Y99.76 E.03121
G1 X83.878 Y115.648 E1.20532
G1 X83.296 Y115.648 E.03121
G1 X67.408 Y99.76 E1.20532
G1 X66.826 Y99.76 E.03121
G1 X82.714 Y115.648 E1.20532
G1 X82.132 Y115.648 E.03121
G1 X66.244 Y99.76 E1.20532
G1 X65.662 Y99.76 E.03121
G1 X81.55 Y115.648 E1.20532
G1 X80.969 Y115.648 E.03121
G1 X65.081 Y99.76 E1.20532
G1 X64.499 Y99.76 E.03121
G1 X80.387 Y115.648 E1.20532
G1 X79.805 Y115.648 E.03121
G1 X63.917 Y99.76 E1.20532
G1 X63.335 Y99.76 E.03121
G1 X79.223 Y115.648 E1.20532
G1 X78.641 Y115.648 E.03121
G1 X62.753 Y99.76 E1.20532
G1 X62.171 Y99.76 E.03121
G1 X78.059 Y115.648 E1.20532
G1 X77.477 Y115.648 E.03121
G1 X61.589 Y99.76 E1.20532
G1 X61.007 Y99.76 E.03121
G1 X76.896 Y115.648 E1.20532
G1 X76.314 Y115.648 E.03121
G1 X60.426 Y99.76 E1.20532
G1 X59.844 Y99.76 E.03121
G1 X75.732 Y115.648 E1.20532
G1 X75.15 Y115.648 E.03121
G1 X59.262 Y99.76 E1.20532
G1 X58.978 Y99.76 E.01522
G1 X58.978 Y100.058 E.01599
G1 X74.568 Y115.648 E1.1827
G1 X73.986 Y115.648 E.03121
G1 X58.978 Y100.64 E1.13856
G1 X58.978 Y101.222 E.03121
G1 X73.404 Y115.648 E1.09442
G1 X72.823 Y115.648 E.03121
G1 X58.978 Y101.804 E1.05028
G1 X58.978 Y102.386 E.03121
G1 X72.241 Y115.648 E1.00614
G1 X71.659 Y115.648 E.03121
G1 X58.978 Y102.967 E.96199
G1 X58.978 Y103.549 E.03121
G1 X71.077 Y115.648 E.91785
G1 X70.495 Y115.648 E.03121
G1 X58.978 Y104.131 E.87371
G1 X58.978 Y104.713 E.03121
G1 X69.913 Y115.648 E.82957
G1 X69.331 Y115.648 E.03121
G1 X58.978 Y105.295 E.78543
G1 X58.978 Y105.877 E.03121
G1 X68.75 Y115.648 E.74128
G1 X68.168 Y115.648 E.03121
G1 X58.978 Y106.459 E.69714
G1 X58.978 Y107.04 E.03121
G1 X67.586 Y115.648 E.653
G1 X67.004 Y115.648 E.03121
G1 X58.978 Y107.622 E.60886
G1 X58.978 Y108.204 E.03121
G1 X66.422 Y115.648 E.56472
G1 X65.84 Y115.648 E.03121
G1 X58.978 Y108.786 E.52057
G1 X58.978 Y109.368 E.03121
G1 X65.258 Y115.648 E.47643
G1 X64.676 Y115.648 E.03121
G1 X58.978 Y109.95 E.43229
G1 X58.978 Y110.532 E.03121
G1 X64.095 Y115.648 E.38815
G1 X63.513 Y115.648 E.03121
G1 X58.978 Y111.113 E.34401
G1 X58.978 Y111.695 E.03121
G1 X62.931 Y115.648 E.29987
G1 X62.349 Y115.648 E.03121
G1 X58.978 Y112.277 E.25572
G1 X58.978 Y112.859 E.03121
G1 X61.767 Y115.648 E.21158
G1 X61.185 Y115.648 E.03121
G1 X58.978 Y113.441 E.16744
G1 X58.978 Y114.023 E.03121
G1 X60.603 Y115.648 E.1233
G1 X60.022 Y115.648 E.03121
G1 X58.978 Y114.605 E.07916
G1 X58.978 Y115.187 E.03121
G1 X59.625 Y115.833 E.04906
; stop printing object C1 top bracket.stl id:1481763717179 copy 0
; printing object C1 top bracket.stl id:0 copy 0
G1 E-.7 F3000
G1 X63.313 Y116.812 Z.52 F19200
G1 X109.861 Y129.161 Z.52
G1 Z.32
G1 E.7 F3000
;TYPE:Inner wall
;WIDTH:0.48
G1 X110.005 Y129.187 E.00789
G1 X115.054 Y129.187 E.27075
G1 X115.617 Y128.999 E.03183
G1 X115.617 Y136.27 E.38989
G1 X58.738 Y136.27 E3.05033
G1 X58.738 Y119.765 E.88515
G1 X108.977 Y119.765 E2.69424
G1 X108.977 Y128.312 E.4584
G1 X109.141 Y128.716 E.02334
G1 X109.345 Y128.947 E.01655
G1 X109.643 Y129.121 E.01854
G1 X109.821 Y129.154 E.00969
G1 X109.933 Y128.763 F19200
G1 F3000
G1 X110.005 Y128.776 E.00395
G1 X115.054 Y128.776 E.27075
G1 X115.424 Y128.652 E.02093
G1 X115.651 Y128.264 E.02415
;WIDTH:0.459037
G1 X115.657 Y128.159 E.00534
;WIDTH:0.453009
G1 X115.657 Y119.38 E.43992
G1 X115.617 Y119.34 E.00283
G1 X116.042 Y119.34 E.02126
G1 X116.042 Y119.532 E.00963
G1 X116.042 Y128.108 E.42976
;WIDTH:0.48
G1 X116.028 Y128.955 E.04538
G1 X116.028 Y136.681 E.41436
G1 X58.327 Y136.681 E3.09445
G1 X58.327 Y119.353 E.92926
M73 P1 R106
G1 X109.411 Y119.353 E2.73955
G1 X109.388 Y119.38 E.00186
G1 X109.388 Y128.017 E.46321
G1 X109.418 Y128.349 E.01787
G1 X109.54 Y128.565 E.01329
G1 X109.788 Y128.736 E.01617
G1 X109.894 Y128.756 E.00575
G1 X110.005 Y128.365 F19200
;TYPE:Outer wall
G1 F3000
G1 X109.85 Y128.294 E.00913
G1 X109.8 Y128.159 E.00775
G1 X109.8 Y119.38 E.47081
G1 X109.902 Y119.299 E.007
;WIDTH:0.435209
G1 X110.005 Y119.219 E.00624
;WIDTH:0.390419
G1 X115.054 Y119.219 E.21179
;WIDTH:0.435209
G1 X115.157 Y119.299 E.00624
;WIDTH:0.48
G1 X115.26 Y119.38 E.007
G1 X115.26 Y128.159 E.47081
G1 X115.177 Y128.323 E.00987
G1 X115.054 Y128.365 E.00698
G1 X110.045 Y128.365 E.26861
G1 E-.7
G1 X112.301 Y131.443 Z.52 F19200
G1 X116.44 Y137.092 Z.52
G1 Z.32
G1 E.7 F3000
G1 X57.916 Y137.092 E3.13857
G1 X57.916 Y118.942 E.97338
G1 X109.362 Y118.942 E2.75899
G1 X109.684 Y118.92 E.0173
;WIDTH:0.435209
G1 X110.005 Y118.897 E.01541
;WIDTH:0.390419
G1 X115.054 Y118.897 E.21179
;WIDTH:0.435209
G1 X115.376 Y118.92 E.01541
;WIDTH:0.48
G2 X116.44 Y118.942 I.693 J-7.631 E.05712
G1 X116.44 Y137.052 E.97124
G1 E-.7
G1 X114.832 Y133.591 Z.52 F19200
G1 X108.854 Y120.72 Z.52
G1 Z.32
G1 E.7 F3000
;TYPE:Bottom surface
;WIDTH:0.480112
G1 F6000
G1 X108.207 Y120.073 E.04906
G1 X107.625 Y120.073 E.03121
G1 X108.669 Y121.117 E.07916
G1 X108.669 Y121.698 E.03121
G1 X107.043 Y120.073 E.1233
G1 X106.461 Y120.073 E.03121
G1 X108.669 Y122.28 E.16744
G1 X108.669 Y122.862 E.03121
G1 X105.88 Y120.073 E.21158
G1 X105.298 Y120.073 E.03121
G1 X108.669 Y123.444 E.25572
G1 X108.669 Y124.026 E.03121
G1 X104.716 Y120.073 E.29987
G1 X104.134 Y120.073 E.03121
G1 X108.669 Y124.608 E.34401
G1 X108.669 Y125.19 E.03121
G1 X103.552 Y120.073 E.38815
G1 X102.97 Y120.073 E.03121
G1 X108.669 Y125.771 E.43229
G1 X108.669 Y126.353 E.03121
G1 X102.388 Y120.073 E.47643
G1 X101.806 Y120.073 E.03121
G1 X108.669 Y126.935 E.52057
G1 X108.669 Y127.517 E.03121
G1 X101.225 Y120.073 E.56472
G1 X100.643 Y120.073 E.03121
G1 X108.868 Y128.298 E.62399
G1 E-.7 F3000
G1 X112.637 Y128.899 Z.52 F19200
G1 X115.098 Y129.291 Z.52
G1 Z.32
G1 E.7 F3000
G1 F6000
G1 X115.309 Y129.502 E.01598
G1 X115.309 Y130.084 E.03121
G1 X114.72 Y129.496 E.04463
G1 X114.138 Y129.496 E.03121
G1 X115.309 Y130.666 E.08877
G1 X115.309 Y131.248 E.03121
G1 X113.556 Y129.496 E.13291
G1 X112.975 Y129.496 E.03121
G1 X115.309 Y131.83 E.17706
G1 X115.309 Y132.411 E.03121
G1 X112.393 Y129.496 E.2212
G1 X111.811 Y129.496 E.03121
G1 X115.309 Y132.993 E.26534
G1 X115.309 Y133.575 E.03121
G1 X111.229 Y129.496 E.30948
G1 X110.647 Y129.496 E.03121
