; HEADER_BLOCK_START
; generated by OrcaSlicer 2.1.0 on 2024-06-25 at 21:37:18
; total layer number: 4
; filament_density: 1.27
; filament_diameter: 1.75
; max_z_height: 1.04
; HEADER_BLOCK_END

; THUMBNAIL_BLOCK_START

;
; THUMBNAIL_BLOCK_END

; external perimeters extrusion width = 0.44mm
; perimeters extrusion width = 0.44mm
; infill extrusion width = 0.62mm
; solid infill extrusion width = 0.44mm
; top infill extrusion width = 0.44mm
; first layer extrusion width = 0.48mm

; external perimeters extrusion width = 0.44mm
; perimeters extrusion width = 0.44mm
; infill extrusion width = 0.62mm
; solid infill extrusion width = 0.44mm
; top infill extrusion width = 0.44mm
; first layer extrusion width = 0.48mm

; external perimeters extrusion width = 0.44mm
; perimeters extrusion width = 0.44mm
; infill extrusion width = 0.62mm
; solid infill extrusion width = 0.44mm
; top infill extrusion width = 0.44mm
; first layer extrusion width = 0.48mm

; EXECUTABLE_BLOCK_START
M73 P0 R33
M201 X18000 Y18000 Z400 E9000
M203 X19200 Y19200 Z2400 E6000
M204 P9000 T9000 ; sets acceleration (P, T), mm/sec^2
M566 X1500.00 Y1500.00 Z15.00 E360.00 ; sets the jerk limits, mm/min
;TYPE:Custom
G90 ; use absolute coordinates
M83 ; extruder relative mode
M106 S0 ; Turn Fan off
M204 S9000 T9000
M190 S80 ; set bed temp
M109 S160 ; set extruder temp
M557 P5 X16.5614:200 Y20:235 ; dynamic meshing
G28 ; home all
G1 Z15 F6000 ; move the printer down 15mm
G1 Y1.0 Z0.3 F4000 ; move print head up
M109 S255 ; set extruder temp

M190 S80 ; wait for bed temp
M109 S255 ; wait for extruder temp
;prime the extruder
G1 X5 Y2 Z0.3 F6000; go to edge of build volume
G1 X60 E10 F1000 ;gentle purge start
G1 X110 E25 F1000; heavy purge
G1 X60;
G90
G21
M83 ; use relative distances for extrusion
; filament start gcode
;LAYER_CHANGE
;Z:0.32
;HEIGHT:0.32
;BEFORE_LAYER_CHANGE
;0.32
G92 E0

G1 E-.7 F3000
;AFTER_LAYER_CHANGE
;0.32
;_SET_FAN_SPEED_CHANGING_LAYER
M204 P2000
M205 X8 Y8
M204 T2000
M73 P0 R32
G1 X18.456 Y16.147 F19200
G1 Z.32
G1 E.7 F3000
;TYPE:Skirt
;WIDTH:0.48
G1 X18.997 Y15.532 E.04391
G1 F2998.488
G1 X19.735 Y14.868 E.05325
G1 X21.205 Y13.949 E.09295
G1 F2997.439
G1 X22.745 Y13.4 E.08771
G1 X23.55 Y13.248 E.0439
G1 X24.54 Y13.179 E.05325
G1 F3000
G1 X202.723 Y13.179 Z.32 E9.55575
G1 F2999.094
G1 X205.41 Y13.179 Z.32 E.14408
G1 X206.847 Y13.572 E.07987
G1 X207.884 Y14.641 E.07987
G1 X208.233 Y16.001 E.07532
G1 X208.233 Y243.999 E12.2272
G1 F2998.953
G1 X207.84 Y245.435 E.07987
G1 F2999.416
G1 X206.771 Y246.472 E.07987
G1 X205.41 Y246.821 E.07532
G1 X24.59 Y246.821 Z.32 E9.69718
G1 X23.28 Y246.711 E.07048
M73 P1 R32
G1 F2997.18
G1 X21.961 Y246.366 E.07315
G1 X20.873 Y245.882 E.06382
G1 F2999.466
G1 X19.735 Y245.132 E.07307
G1 F2998.288
G1 X19.12 Y244.591 E.04394
G1 X18.456 Y243.853 E.05323
G1 X17.537 Y242.383 E.09298
G1 X17.222 Y241.627 E.0439
G1 X16.949 Y240.673 E.05324
G1 F2999.404
G1 X16.767 Y238.999 E.09034
G1 X16.767 Y21.001 E11.69091
G1 F2997.833
G1 X16.878 Y19.692 E.07049
G1 X17.222 Y18.372 E.07313
G1 F2999.153
G1 X17.791 Y17.133 E.07313
G1 F2737.843
G1 X18.434 Y16.18 E.06166
G1 X18.773 Y16.409 F19200
G1 F3000
G1 X18.776 Y16.405 E.00022
G1 F2737.095
G1 X19.858 Y15.297 E.08308
G1 F2999.547
G1 X21.303 Y14.359 E.09239
G1 X22.838 Y13.8 E.08758
G1 X24.548 Y13.59 E.09238
G1 X202.724 Y13.59 Z.32 E9.5554
G1 F2998.729
G1 X205.41 Y13.59 Z.32 E.14404
G1 X206.728 Y13.982 E.07371
G1 F2999.154
G1 X207.617 Y15.03 E.07371
G1 F2997.992
G1 X207.822 Y16.001 E.05326
G1 X207.822 Y243.999 E12.2272
G1 F2999.491
G1 X207.43 Y245.316 E.07371
G1 X206.382 Y246.205 E.07371
G1 X205.41 Y246.41 E.05326
G1 F3000
G1 X24.59 Y246.41 Z.32 E9.69718
G1 F2998.693
G1 X23.345 Y246.304 E.06702
G1 X22.094 Y245.977 E.0693
G1 F2997.727
G1 X21.073 Y245.522 E.05997
G1 X19.994 Y244.813 E.06923
G1 F2998.242
G1 X18.776 Y243.595 E.0924
G1 X17.91 Y242.209 E.0876
M73 P2 R32
G1 X17.349 Y240.581 E.09237
G1 F2999.862
G1 X17.178 Y238.999 E.08534
G1 X17.178 Y21.001 E11.69091
G1 F2998.784
G1 X17.284 Y19.756 E.06703
G1 F2999.8
G1 X17.611 Y18.506 E.06928
G1 X18.151 Y17.332 E.06928
G1 X18.751 Y16.442 E.0576
; printing object Back mesh digital weave.stl id:0 copy 0
G1 E-.49 F3000
;WIPE_START
G1 X18.776 Y16.405 E-.00927
G1 X19.444 Y15.722 E-.20073
;WIPE_END
G1 X23.26 Y15.741 Z.52 F19200
G1 X204.759 Y16.653 Z.52
G1 Z.32
G1 E.7 F3000
;TYPE:Inner wall
;WIDTH:0.48
G1 X204.759 Y86.662 Z.32 E3.75449
G1 F2999.98
G1 X204.759 Y89.349 Z.32 E.14412
G1 X24.724 Y89.349 E9.65503
G1 F2995.046
G1 X24.146 Y89.325 E.03105
G1 X23.698 Y89.238 E.02444
G1 F2996.834
G1 X23.087 Y89.068 E.03402
G1 X22.547 Y88.826 E.03173
G1 F2995.719
G1 X22.038 Y88.506 E.03227
G1 X21.515 Y88.06 E.03683
G1 F2997.173
G1 X21.075 Y87.56 E.03573
G1 X20.751 Y87.041 E.0328
G1 F2998.479
G1 X20.505 Y86.488 E.03247
G1 X20.334 Y85.884 E.03367
G1 F2997.797
G1 X20.244 Y85.137 E.04038
G1 X20.241 Y21.229 E3.4273
G1 F2999.169
G1 X20.28 Y20.582 E.03477
G1 X20.363 Y20.008 E.0311
G1 X20.518 Y19.51 E.02797
G1 F2998.92
G1 X20.801 Y18.89 E.03655
G1 X21.161 Y18.329 E.03573
G1 F2999.734
G1 X21.57 Y17.874 E.0328
G1 F2993.07
G1 X22.034 Y17.485 E.03253
G1 X22.544 Y17.166 E.03224
G1 F2999.155
G1 X23.252 Y16.866 E.04123
G1 X23.835 Y16.72 E.03222
G1 X24.449 Y16.656 E.0331
G1 F3000
G1 X204.719 Y16.653 Z.32 E9.66766
G1 X205.17 Y16.241 F19200
;TYPE:Outer wall
G1 F3000
G1 X205.17 Y89.76 Z.32 E3.94273
G1 F2999.996
G1 X27.282 Y89.76 Z.32 E9.53995
G1 F2997.96
M73 P3 R32
G1 X24.596 Y89.76 Z.32 E.14403
G1 X24.095 Y89.734 E.02688
G1 F2996.061
G1 X23.276 Y89.575 E.04478
G1 X22.654 Y89.348 E.0355
G1 F2994.648
G1 X22.068 Y89.037 E.03561
G1 X21.53 Y88.646 E.03561
G1 F2991.875
G1 X21.23 Y88.356 E.02242
G1 X20.74 Y87.799 E.03977
G1 F2998.782
G1 X20.387 Y87.235 E.03569
G1 X20.117 Y86.629 E.03558
G1 X19.93 Y85.965 E.03697
G1 F2999.192
G1 X19.833 Y85.161 E.04343
G1 X19.83 Y23.697 Z.32 E3.29628
G1 F2998.464
G1 X19.83 Y21.011 Z.32 E.14403
G1 X19.88 Y20.433 E.03109
G1 F2997.506
G1 X20.014 Y19.691 E.04047
G1 X20.242 Y19.066 E.03569
G1 F2998.302
G1 X20.438 Y18.697 E.02242
G1 X20.838 Y18.072 E.03977
G1 F2995.346
G1 X21.283 Y17.578 E.03569
G1 F2999.521
G1 X21.792 Y17.151 E.03561
G1 X22.354 Y16.8 E.03551
G1 F2998.89
G1 X23.121 Y16.474 E.04469
G1 F2997.485
G1 X23.763 Y16.314 E.03551
G1 X24.427 Y16.244 E.0358
G1 X205.13 Y16.241 E9.69087
G1 E-.49 F3000
;WIPE_START
G1 X205.131 Y17.241 E-.21
;WIPE_END
G1 X201.315 Y17.226 Z.52 F19200
G1 X153.879 Y17.041 Z.52
G1 Z.32
G1 E.7 F3000
;TYPE:Sparse infill
;WIDTH:0.48
G1 X151.605 Y17.041 E.12195
G1 F2996.612
G1 X151.605 Y17.84 E.04289
G1 X150.449 Y18.997 E.08769
G1 F2999.162
G1 X149.361 Y18.997 E.05836
G1 X148.205 Y20.153 E.08769
G1 X148.205 Y21.241 E.05836
G1 X147.048 Y22.397 E.08769
G1 X145.96 Y22.397 E.05836
G1 X144.804 Y23.553 E.08769
G1 X144.804 Y24.641 E.05836
G1 X143.648 Y25.797 E.08769
G1 X142.56 Y25.797 E.05836
G1 X141.404 Y26.954 E.08769
G1 X141.404 Y28.042 E.05836
G1 F2998.738
G1 X140.248 Y29.198 E.08769
G1 X139.159 Y29.198 E.05836
G1 X138.003 Y30.354 E.08769
G1 F2999.764
G1 X138.003 Y31.442 E.05836
G1 X136.847 Y32.598 E.08769
G1 X135.759 Y32.598 E.05836
G1 F2998.75
G1 X134.603 Y33.754 E.08769
G1 X134.603 Y34.843 E.05836
G1 X133.447 Y35.999 E.08769
G1 F2999.158
G1 X132.359 Y35.999 E.05836
G1 X131.202 Y37.155 E.08769
G1 X131.202 Y38.243 E.05836
G1 X130.046 Y39.399 E.08769
G1 X128.958 Y39.399 E.05836
G1 X127.802 Y40.555 E.08769
G1 X127.802 Y41.643 E.05836
G1 X126.646 Y42.8 E.08769
G1 X125.558 Y42.8 E.05836
G1 X124.402 Y43.956 E.08769
G1 X124.402 Y45.044 E.05836
G1 X123.245 Y46.2 E.08769
G1 X122.157 Y46.2 E.05836
G1 X121.001 Y47.356 E.08769
G1 X121.001 Y48.444 E.05836
G1 X119.845 Y49.601 E.08769
G1 X118.757 Y49.601 E.05836
G1 X117.601 Y50.757 E.08769
G1 X117.601 Y51.845 E.05836
G1 F2998.743
G1 X116.445 Y53.001 E.08769
G1 X115.356 Y53.001 E.05836
G1 X114.2 Y54.157 E.08769
G1 F2999.751
G1 X114.2 Y55.245 E.05836
G1 X113.044 Y56.401 E.08769
G1 X111.956 Y56.401 E.05836
G1 X110.8 Y57.558 E.08769
M73 P3 R31
G1 X110.8 Y58.646 E.05836
G1 F2998.747
G1 X109.644 Y59.802 E.08769
G1 X108.555 Y59.802 E.05836
G1 X107.399 Y60.958 E.08769
G1 F2999.764
G1 X107.399 Y62.046 E.05836
G1 X106.243 Y63.202 E.08769
G1 X105.155 Y63.202 E.05836
G1 F2998.745
G1 X103.999 Y64.358 E.08769
G1 X103.999 Y65.447 E.05836
G1 X102.843 Y66.603 E.08769
G1 F2999.129
G1 X101.755 Y66.603 E.05836
G1 X100.598 Y67.759 E.08769
G1 X100.598 Y68.847 E.05836
G1 X99.442 Y70.003 E.08769
G1 X98.354 Y70.003 E.05836
G1 X97.198 Y71.159 E.08769
G1 X97.198 Y72.247 E.05836
G1 X96.042 Y73.404 E.08769
G1 X94.954 Y73.404 E.05836
G1 X93.798 Y74.56 E.08769
G1 X93.798 Y75.648 E.05836
G1 X92.641 Y76.804 E.08769
G1 X91.553 Y76.804 E.05836
G1 X90.397 Y77.96 E.08769
G1 X90.397 Y79.048 E.05836
G1 X89.241 Y80.204 E.08769
G1 X88.153 Y80.204 E.05836
G1 X86.997 Y81.361 E.08769
G1 X86.997 Y82.449 E.05836
G1 F2998.737
G1 X85.841 Y83.605 E.08769
G1 X84.752 Y83.605 E.05836
G1 X83.596 Y84.761 E.08769
G1 F2999.761
G1 X83.596 Y85.849 E.05836
G1 X82.44 Y87.005 E.08769
G1 X81.352 Y87.005 E.05836
G1 X80.196 Y88.161 E.08769
G1 X80.196 Y88.962 E.04294
G1 F2998.406
G1 X81.896 Y88.962 Z.32 E.09119
G1 X83.596 Y88.962 Z.32 E.09117
G1 X83.596 Y88.161 E.04294
G1 F2997.794
G1 X84.752 Y87.005 E.08769
G1 X85.841 Y87.005 E.05836
G1 F2998.732
G1 X86.997 Y85.849 E.08769
G1 F2999.761
G1 X86.997 Y84.761 E.05836
G1 X88.153 Y83.605 E.08769
G1 X89.241 Y83.605 E.05836
G1 X90.397 Y82.449 E.08769
G1 X90.397 Y81.361 E.05836
G1 X91.553 Y80.204 E.08769
G1 F2998.46
G1 X92.641 Y80.204 E.05836
G1 X93.798 Y79.048 E.08769
G1 F2999.104
G1 X93.798 Y77.96 E.05836
G1 X94.954 Y76.804 E.08769
G1 X96.042 Y76.804 E.05836
G1 X97.198 Y75.648 E.08769
G1 X97.198 Y74.56 E.05836
G1 X98.354 Y73.404 E.08769
G1 X99.442 Y73.404 E.05836
G1 X100.598 Y72.247 E.08769
G1 F2998.486
G1 X100.598 Y71.159 E.05836
G1 X101.755 Y70.003 E.08769
G1 F2999.134
G1 X102.843 Y70.003 E.05836
G1 X103.999 Y68.847 E.08769
G1 X103.999 Y67.759 E.05836
G1 X105.155 Y66.603 E.08769
G1 X106.243 Y66.603 E.05836
G1 F2998.747
G1 X107.399 Y65.447 E.08769
G1 X107.399 Y64.358 E.05836
G1 F2997.49
G1 X108.555 Y63.202 E.08769
G1 X109.644 Y63.202 E.05836
G1 F2998.747
G1 X110.8 Y62.046 E.08769
G1 F2999.764
G1 X110.8 Y60.958 E.05836
G1 X111.956 Y59.802 E.08769
G1 X113.044 Y59.802 E.05836
G1 X114.2 Y58.646 E.08769
G1 X114.2 Y57.558 E.05836
G1 X115.356 Y56.401 E.08769
G1 X116.445 Y56.401 E.05836
G1 F2998.745
G1 X117.601 Y55.245 E.08769
G1 F2999.751
G1 X117.601 Y54.157 E.05836
G1 X118.757 Y53.001 E.08769
G1 X119.845 Y53.001 E.05836
G1 X121.001 Y51.845 E.08769
G1 X121.001 Y50.757 E.05836
G1 X122.157 Y49.601 E.08769
G1 F2998.484
G1 X123.245 Y49.601 E.05836
G1 X124.402 Y48.444 E.08769
G1 X124.402 Y47.356 E.05836
G1 X125.558 Y46.2 E.08769
G1 F2999.78
G1 X126.646 Y46.2 E.05836
G1 X127.802 Y45.044 E.08769
G1 X127.802 Y43.956 E.05836
G1 X128.958 Y42.8 E.08769
G1 X130.046 Y42.8 E.05836
G1 X131.202 Y41.643 E.08769
G1 F2998.478
G1 X131.202 Y40.555 E.05836
G1 X132.359 Y39.399 E.08769
G1 F2999.158
G1 X133.447 Y39.399 E.05836
G1 X134.603 Y38.243 E.08769
G1 X134.603 Y37.155 E.05836
G1 X135.759 Y35.999 E.08769
G1 X136.847 Y35.999 E.05836
G1 F2998.75
G1 X138.003 Y34.843 E.08769
G1 X138.003 Y33.754 E.05836
G1 F2997.469
G1 X139.159 Y32.598 E.08769
G1 X140.248 Y32.598 E.05836
G1 F2998.738
G1 X141.404 Y31.442 E.08769
G1 F2999.764
G1 X141.404 Y30.354 E.05836
G1 X142.56 Y29.198 E.08769
G1 X143.648 Y29.198 E.05836
G1 X144.804 Y28.042 E.08769
G1 X144.804 Y26.954 E.05836
G1 X145.96 Y25.797 E.08769
G1 F2998.457
G1 X147.048 Y25.797 E.05836
G1 X148.205 Y24.641 E.08769
G1 F2999.125
G1 X148.205 Y23.553 E.05836
G1 X149.361 Y22.397 E.08769
G1 X150.449 Y22.397 E.05836
G1 X151.605 Y21.241 E.08769
G1 X151.605 Y20.153 E.05836
G1 X152.761 Y18.997 E.08769
G1 X153.849 Y18.997 E.05836
G1 X155.005 Y17.84 E.08769
G1 F2996.371
G1 X155.005 Y17.041 E.04289
G1 X158.406 Y17.041 E.18236
G1 X158.406 Y17.84 E.04289
G1 X157.25 Y18.997 E.08769
G1 F2998.457
G1 X156.162 Y18.997 E.05836
G1 X155.005 Y20.153 E.08769
G1 F2999.111
G1 X155.005 Y21.241 E.05836
G1 X153.849 Y22.397 E.08769
G1 X152.761 Y22.397 E.05836
G1 X151.605 Y23.553 E.08769
G1 X151.605 Y24.641 E.05836
G1 X150.449 Y25.797 E.08769
G1 X149.361 Y25.797 E.05836
G1 X148.205 Y26.954 E.08769
G1 F2998.472
G1 X148.205 Y28.042 E.05836
G1 X147.048 Y29.198 E.08769
G1 F2999.105
G1 X145.96 Y29.198 E.05836
G1 X144.804 Y30.354 E.08769
G1 X144.804 Y31.442 E.05836
G1 X143.648 Y32.598 E.08769
G1 X142.56 Y32.598 E.05836
G1 F2998.74
G1 X141.404 Y33.754 E.08769
G1 X141.404 Y34.843 E.05836
G1 F2997.49
G1 X140.248 Y35.999 E.08769
G1 X139.159 Y35.999 E.05836
G1 F2998.727
G1 X138.003 Y37.155 E.08769
G1 F2999.772
G1 X138.003 Y38.243 E.05836
G1 X136.847 Y39.399 E.08769
G1 X135.759 Y39.399 E.05836
G1 X134.603 Y40.555 E.08769
G1 X134.603 Y41.643 E.05836
G1 X133.447 Y42.8 E.08769
G1 F2998.51
G1 X132.359 Y42.8 E.05836
G1 X131.202 Y43.956 E.08769
G1 F2999.113
G1 X131.202 Y45.044 E.05836
G1 X130.046 Y46.2 E.08769
G1 X128.958 Y46.2 E.05836
G1 X127.802 Y47.356 E.08769
G1 X127.802 Y48.444 E.05836
G1 X126.646 Y49.601 E.08769
G1 X125.558 Y49.601 E.05836
G1 X124.402 Y50.757 E.08769
G1 X124.402 Y51.845 E.05836
G1 X123.245 Y53.001 E.08769
G1 X122.157 Y53.001 E.05836
G1 X121.001 Y54.157 E.08769
G1 X121.001 Y55.245 E.05836
G1 X119.845 Y56.401 E.08769
G1 X118.757 Y56.401 E.05836
G1 X117.601 Y57.558 E.08769
G1 X117.601 Y58.646 E.05836
G1 F2998.743
G1 X116.445 Y59.802 E.08769
G1 X115.356 Y59.802 E.05836
G1 X114.2 Y60.958 E.08769
G1 F2999.764
G1 X114.2 Y62.046 E.05836
G1 X113.044 Y63.202 E.08769
G1 X111.956 Y63.202 E.05836
G1 F2998.745
G1 X110.8 Y64.358 E.08769
G1 X110.8 Y65.447 E.05836
G1 F2997.495
G1 X109.644 Y66.603 E.08769
G1 X108.555 Y66.603 E.05836
G1 F2998.747
G1 X107.399 Y67.759 E.08769
G1 F2999.751
G1 X107.399 Y68.847 E.05836
G1 X106.243 Y70.003 E.08769
G1 X105.155 Y70.003 E.05836
G1 X103.999 Y71.159 E.08769
G1 X103.999 Y72.247 E.05836
G1 X102.843 Y73.404 E.08769
G1 F2998.486
G1 X101.755 Y73.404 E.05836
G1 X100.598 Y74.56 E.08769
G1 F2999.134
G1 X100.598 Y75.648 E.05836
G1 X99.442 Y76.804 E.08769
G1 X98.354 Y76.804 E.05836
G1 X97.198 Y77.96 E.08769
G1 X97.198 Y79.048 E.05836
G1 X96.042 Y80.204 E.08769
G1 X94.954 Y80.204 E.05836
G1 X93.798 Y81.361 E.08769
G1 F2998.455
G1 X93.798 Y82.449 E.05836
G1 X92.641 Y83.605 E.08769
G1 F2999.108
G1 X91.553 Y83.605 E.05836
G1 X90.397 Y84.761 E.08769
G1 X90.397 Y85.849 E.05836
G1 X89.241 Y87.005 E.08769
G1 X88.153 Y87.005 E.05836
G1 X86.997 Y88.161 E.08769
G1 X86.997 Y88.962 E.04294
G1 F2998.406
G1 X88.697 Y88.962 Z.32 E.09119
G1 X90.397 Y88.962 Z.32 E.09117
G1 X90.397 Y88.161 E.04294
G1 F2999.057
G1 X91.553 Y87.005 E.08769
G1 X92.641 Y87.005 E.05836
G1 X93.798 Y85.849 E.08769
G1 X93.798 Y84.761 E.05836
G1 X94.954 Y83.605 E.08769
G1 X96.042 Y83.605 E.05836
G1 X97.198 Y82.449 E.08769
G1 X97.198 Y81.361 E.05836
G1 X98.354 Y80.204 E.08769
G1 X99.442 Y80.204 E.05836
G1 X100.598 Y79.048 E.08769
G1 X100.598 Y77.96 E.05836
G1 X101.755 Y76.804 E.08769
G1 X102.843 Y76.804 E.05836
G1 X103.999 Y75.648 E.08769
G1 X103.999 Y74.56 E.05836
G1 X105.155 Y73.404 E.08769
G1 X106.243 Y73.404 E.05836
G1 X107.399 Y72.247 E.08769
G1 X107.399 Y71.159 E.05836
G1 F2998.743
G1 X108.555 Y70.003 E.08769
G1 X109.644 Y70.003 E.05836
G1 X110.8 Y68.847 E.08769
G1 F2999.751
G1 X110.8 Y67.759 E.05836
G1 X111.956 Y66.603 E.08769
G1 X113.044 Y66.603 E.05836
G1 F2998.743
G1 X114.2 Y65.447 E.08769
G1 X114.2 Y64.358 E.05836
G1 F2997.5
G1 X115.356 Y63.202 E.08769
G1 X116.445 Y63.202 E.05836
G1 F2998.743
G1 X117.601 Y62.046 E.08769
G1 F2999.764
G1 X117.601 Y60.958 E.05836
G1 X118.757 Y59.802 E.08769
G1 X119.845 Y59.802 E.05836
G1 X121.001 Y58.646 E.08769
G1 X121.001 Y57.558 E.05836
G1 X122.157 Y56.401 E.08769
G1 F2998.483
G1 X123.245 Y56.401 E.05836
G1 X124.402 Y55.245 E.08769
G1 F2999.108
G1 X124.402 Y54.157 E.05836
G1 X125.558 Y53.001 E.08769
G1 X126.646 Y53.001 E.05836
G1 X127.802 Y51.845 E.08769
G1 X127.802 Y50.757 E.05836
G1 X128.958 Y49.601 E.08769
G1 X130.046 Y49.601 E.05836
G1 X131.202 Y48.444 E.08769
G1 F2998.478
G1 X131.202 Y47.356 E.05836
G1 X132.359 Y46.2 E.08769
G1 F2999.158
G1 X133.447 Y46.2 E.05836
G1 X134.603 Y45.044 E.08769
M73 P4 R31
