; HEADER_BLOCK_START
; generated by OrcaSlicer 2.1.0 on 2024-06-25 at 21:19:27
; total layer number: 29
; filament_density: 1.27
; filament_diameter: 1.75
; max_z_height: 7.04
; HEADER_BLOCK_END

; THUMBNAIL_BLOCK_START

;
; THUMBNAIL_BLOCK_END

; external perimeters extrusion width = 0.44mm
; perimeters extrusion width = 0.44mm
; infill extrusion width = 0.62mm
; solid infill extrusion width = 0.44mm
; top infill extrusion width = 0.44mm
; first layer extrusion width = 0.48mm

; external perimeters extrusion width = 0.44mm
; perimeters extrusion width = 0.44mm
; infill extrusion width = 0.62mm
; solid infill extrusion width = 0.44mm
; top infill extrusion width = 0.44mm
; first layer extrusion width = 0.48mm

; EXECUTABLE_BLOCK_START
M73 P0 R67
M201 X18000 Y18000 Z400 E9000
M203 X19200 Y19200 Z2400 E6000
M204 P9000 T9000 ; sets acceleration (P, T), mm/sec^2
M566 X1500.00 Y1500.00 Z15.00 E360.00 ; sets the jerk limits, mm/min
;TYPE:Custom
G90 ; use absolute coordinates
M83 ; extruder relative mode
M106 S0 ; Turn Fan off
M204 S9000 T9000
M190 S80 ; set bed temp
M109 S160 ; set extruder temp
M557 P5 X11.9717:200 Y39.4717:220.528 ; dynamic meshing
G28 ; home all
G1 Z15 F6000 ; move the printer down 15mm
G1 Y1.0 Z0.3 F4000 ; move print head up
M109 S255 ; set extruder temp

M190 S80 ; wait for bed temp
M109 S255 ; wait for extruder temp
;prime the extruder
G1 X5 Y2 Z0.3 F6000; go to edge of build volume
G1 X60 E10 F1000 ;gentle purge start
G1 X110 E25 F1000; heavy purge
G1 X60;
G90
G21
M83 ; use relative distances for extrusion
; filament start gcode
;LAYER_CHANGE
;Z:0.32
;HEIGHT:0.32
;BEFORE_LAYER_CHANGE
;0.32
G92 E0

G1 E-.7 F3000
;AFTER_LAYER_CHANGE
;0.32
;_SET_FAN_SPEED_CHANGING_LAYER
M204 P2000
M205 X8 Y8
M204 T2000
G1 X14.71 Y39.903 F19200
G1 Z.32
G1 E.7 F3000
;TYPE:Skirt
;WIDTH:0.48
G1 X15.319 Y39.74 E.03382
G1 X16 Y39.677 E.03668
G1 X209.004 Y39.678 E10.35059
G1 X209.809 Y39.766 E.04342
G1 X210.631 Y40.045 E.04653
G1 X211.177 Y40.36 E.03381
G1 X211.829 Y40.932 E.04652
G1 X212.213 Y41.432 E.03382
G1 X212.597 Y42.21 E.04652
G1 X212.76 Y42.819 E.03381
G1 X212.823 Y43.5 E.03668
G1 X212.808 Y158.815 E6.18421
G1 X212.516 Y160 E.06544
G1 X187.516 Y218 E3.38711
G1 X187.14 Y218.677 E.04152
G1 X186.568 Y219.329 E.04654
G1 X186.068 Y219.713 E.0338
G1 X185.29 Y220.097 E.04653
G1 X184.681 Y220.26 E.0338
G1 X184 Y220.323 E.03669
G1 X15 Y220.323 E9.06326
G1 X13.563 Y219.93 E.07987
G1 X12.527 Y218.86 E.07987
G1 X12.177 Y217.5 E.07532
G1 X12.177 Y43.5 E9.3314
M73 P0 R66
G1 X12.266 Y42.691 E.04367
G1 X12.545 Y41.869 E.04653
G1 X12.86 Y41.323 E.0338
G1 X13.432 Y40.671 E.04653
G1 X13.932 Y40.287 E.03381
G1 X14.674 Y39.921 E.04437
G1 X14.842 Y40.293 F19200
G1 F3000
G1 X15.399 Y40.144 E.03093
G1 X16 Y40.089 E.03236
G1 X209.004 Y40.089 E10.35059
G1 X209.729 Y40.169 E.0391
G1 X210.449 Y40.413 E.04077
G1 X210.948 Y40.702 E.03092
G1 X211.52 Y41.203 E.04077
G1 X211.871 Y41.66 E.03093
G1 X212.207 Y42.342 E.04076
G1 X212.356 Y42.899 E.03092
G1 X212.411 Y43.5 E.03236
G1 X212.398 Y158.788 E6.18277
G1 X212.138 Y159.837 E.05795
G1 X187.138 Y217.837 E3.38711
G1 X186.798 Y218.448 E.03751
G1 X186.297 Y219.02 E.04078
G1 X185.84 Y219.371 E.03092
G1 X185.158 Y219.707 E.04077
G1 X184.601 Y219.856 E.03092
G1 X184 Y219.911 E.03236
G1 X15 Y219.911 E9.06326
G1 X13.683 Y219.52 E.07371
G1 X12.793 Y218.472 E.07371
G1 X12.589 Y217.5 E.05326
G1 X12.589 Y43.5 E9.3314
G1 X12.669 Y42.771 E.03934
G1 X12.913 Y42.051 E.04077
G1 X13.202 Y41.552 E.03091
G1 X13.703 Y40.98 E.04077
G1 X14.16 Y40.629 E.03092
G1 X14.806 Y40.311 E.03862
; printing object Screen Backplate.stl id:0 copy 0
G1 E-.49
;WIPE_START
G1 X15.399 Y40.144 E-.12937
G1 X15.782 Y40.109 E-.08063
;WIPE_END
G1 X19.401 Y41.317 Z.52 F19200
G1 X208.915 Y104.585 Z.52
G1 Z.32
M73 P1 R66
G1 E.7 F3000
;TYPE:Inner wall
;WIDTH:0.48
G1 X208.937 Y104.607 E.00167
G1 X208.937 Y158.393 E2.88452
G1 X208.893 Y158.437 E.00333
G1 X185.928 Y158.437 E1.23163
G1 X185.403 Y158.536 E.02862
G1 X185.129 Y158.632 E.01558
G1 X184.697 Y158.914 E.02764
G1 X184.459 Y159.135 E.01746
G1 X184.178 Y159.551 E.02691
G1 X184.036 Y159.903 E.02037
G1 X183.937 Y160.499 E.03238
G1 X183.937 Y216.393 E2.99756
G1 X183.898 Y216.437 E.00317
G1 X115.063 Y216.437 E3.69154
G1 X115.063 Y43.607 E9.26869
G1 X115.102 Y43.563 E.00317
G1 X208.894 Y43.563 E5.02992
G1 X208.937 Y43.602 E.00315
G1 X208.937 Y52.393 E.47146
G1 X208.898 Y52.437 E.00317
G1 X179.999 Y52.437 E1.54981
G1 X179.403 Y52.536 E.03238
G1 X179.146 Y52.624 E.01458
G1 X178.697 Y52.914 E.02864
G1 X178.491 Y53.096 E.01479
G1 X178.189 Y53.533 E.02845
G1 X178.036 Y53.903 E.0215
G1 X177.937 Y54.499 E.03238
G1 X177.937 Y102.576 E2.57831
G1 X178.036 Y103.097 E.02843
G1 X178.131 Y103.368 E.01541
G1 X178.414 Y103.803 E.02781
G1 X178.624 Y104.033 E.01673
G1 X179.048 Y104.321 E.02748
G1 X179.403 Y104.464 E.02054
G1 X179.999 Y104.563 E.03238
G1 X208.884 Y104.563 E1.5491
G1 X209.207 Y104.252 F19200
G1 F3000
G1 X209.311 Y104.371 E.00846
G1 X209.349 Y104.607 E.0128
G1 X209.349 Y158.438 E2.88692
G1 X209.274 Y158.683 E.01374
G1 X209.129 Y158.811 E.01037
G1 X208.893 Y158.849 E.01279
G1 X185.981 Y158.849 E1.22876
G1 X185.484 Y158.939 E.02712
G1 X185.261 Y159.031 E.0129
G1 X184.819 Y159.346 E.02911
G1 X184.531 Y159.761 E.0271
G1 X184.439 Y159.984 E.0129
G1 X184.349 Y160.499 E.02806
G1 X184.349 Y216.393 E2.99756
G1 X184.311 Y216.629 E.01279
G1 X184.183 Y216.774 E.01037
G1 X183.938 Y216.849 E.01374
G1 X114.651 Y216.849 E3.71577
G1 X114.651 Y43.607 E9.29075
G1 X114.689 Y43.371 E.01279
G1 X114.817 Y43.226 E.01037
G1 X115.062 Y43.151 E.01374
G1 X208.894 Y43.152 E5.03209
G1 X209.128 Y43.189 E.01274
G1 X209.274 Y43.317 E.0104
G1 X209.349 Y43.562 E.01374
G1 X209.349 Y52.393 E.47363
G1 X209.311 Y52.629 E.01279
G1 X209.183 Y52.774 E.01037
G1 X208.938 Y52.849 E.01374
G1 X179.928 Y52.849 E1.55578
G1 X179.329 Y52.992 E.03302
G1 X178.858 Y53.308 E.03039
G1 X178.531 Y53.761 E.03
G1 X178.439 Y53.984 E.0129
G1 X178.349 Y54.499 E.02806
G1 X178.349 Y102.515 E2.57506
G1 X178.439 Y103.016 E.02731
G1 X178.531 Y103.239 E.0129
G1 X178.843 Y103.678 E.02892
G1 X179.261 Y103.969 E.02729
G1 X179.484 Y104.061 E.0129
G1 X179.999 Y104.151 E.02806
G1 X208.938 Y104.151 E1.55198
G1 X209.179 Y104.224 E.0135
G1 X209.535 Y103.966 F19200
;TYPE:Outer wall
G1 F3000
G1 X209.698 Y104.211 E.01581
G1 X209.76 Y104.607 E.02149
G1 X209.76 Y158.393 E2.88452
G1 X209.698 Y158.789 E.02148
G1 X209.535 Y159.034 E.01581
G1 X209.289 Y159.198 E.01581
G1 X208.979 Y159.26 E.01698
G1 X185.999 Y159.26 E1.23238
G1 X185.564 Y159.343 E.02374
G1 X185.154 Y159.598 E.02588
G1 X184.864 Y160.005 E.02681
G1 X184.76 Y160.495 E.0269
G1 X184.76 Y216.393 E2.99774
G1 X184.698 Y216.789 E.02148
G1 X184.534 Y217.034 E.01581
G1 X184.289 Y217.198 E.01581
G1 X183.979 Y217.26 E.01698
G1 X114.24 Y217.26 E3.73999
G1 X114.24 Y43.607 E9.31281
G1 X114.302 Y43.211 E.02148
G1 X114.466 Y42.965 E.01581
G1 X114.711 Y42.802 E.01581
G1 X115.021 Y42.74 E.01698
G1 X208.894 Y42.74 E5.03425
G1 X209.289 Y42.802 E.02145
G1 X209.535 Y42.966 E.01583
G1 X209.698 Y43.211 E.01581
G1 X209.76 Y43.521 E.01699
G1 X209.76 Y52.393 E.4758
G1 X209.698 Y52.789 E.02148
G1 X209.535 Y53.034 E.01581
G1 X209.289 Y53.198 E.01581
G1 X208.979 Y53.26 E.01698
G1 X179.999 Y53.26 E1.55415
G1 X179.564 Y53.343 E.02374
G1 X179.154 Y53.598 E.02588
G1 X178.862 Y54.009 E.02706
G1 X178.76 Y54.499 E.02684
G1 X178.76 Y102.501 E2.5743
G1 X178.843 Y102.936 E.02374
G1 X179.098 Y103.346 E.02588
G1 X179.506 Y103.637 E.02691
G1 X179.999 Y103.74 E.02699
G1 X208.893 Y103.74 E1.54958
G1 X209.289 Y103.802 E.02149
G1 X209.501 Y103.943 E.01367
G1 E-.49
;WIPE_START
G1 X209.698 Y104.211 E-.06973
G1 X209.76 Y104.607 E-.08417
G1 X209.76 Y104.874 E-.0561
;WIPE_END
G1 X207.501 Y107.95 Z.52 F19200
G1 X130.317 Y213.059 Z.52
G1 Z.32
G1 E.7 F3000
;TYPE:Inner wall
G1 X129.967 Y213.311 E.02314
G1 X129.597 Y213.464 E.0215
G1 X129.001 Y213.563 E.03238
G1 X119.999 Y213.563 E.48278
G1 X119.403 Y213.464 E.03238
G1 X119.033 Y213.311 E.02149
G1 X118.541 Y212.959 E.03242
G1 X118.189 Y212.467 E.03242
G1 X118.036 Y212.097 E.0215
G1 X117.937 Y211.501 E.03238
G1 X117.937 Y189.499 E1.17995
G1 X118.036 Y188.903 E.03238
G1 X118.189 Y188.533 E.0215
G1 X118.547 Y188.036 E.03286
G1 X119.033 Y187.689 E.03198
G1 X119.403 Y187.536 E.0215
G1 X119.999 Y187.437 E.03238
G1 X129.001 Y187.437 E.48278
G1 X129.597 Y187.536 E.03238
G1 X129.948 Y187.677 E.02027
G1 X130.372 Y187.964 E.02749
G1 X130.586 Y188.197 E.01698
G1 X130.868 Y188.629 E.02762
G1 X130.964 Y188.903 E.01559
G1 X131.059 Y189.412 E.02777
G1 X131.063 Y211.501 E1.18461
G1 X130.964 Y212.097 E.03238
G1 X130.811 Y212.467 E.0215
G1 X130.464 Y212.953 E.03198
G1 X130.35 Y213.035 E.00757
G1 X130.076 Y212.731 F19200
G1 F3000
G1 X129.739 Y212.969 E.02214
G1 X129.516 Y213.061 E.0129
G1 X129.001 Y213.151 E.02806
G1 X119.999 Y213.151 E.48278
G1 X119.484 Y213.061 E.02806
G1 X119.261 Y212.969 E.0129
G1 X118.832 Y212.668 E.0281
G1 X118.531 Y212.239 E.02811
G1 X118.439 Y212.016 E.0129
G1 X118.349 Y211.501 E.02806
G1 X118.349 Y189.499 E1.17995
G1 X118.439 Y188.984 E.02806
G1 X118.531 Y188.761 E.0129
G1 X118.836 Y188.329 E.02837
G1 X119.261 Y188.031 E.02785
G1 X119.484 Y187.939 E.0129
G1 X119.999 Y187.849 E.02806
G1 X129.001 Y187.849 E.48278
G1 X129.516 Y187.939 E.02806
G1 X129.739 Y188.031 E.0129
G1 X130.15 Y188.316 E.02683
G1 X130.469 Y188.761 E.02937
G1 X130.561 Y188.983 E.0129
G3 X130.651 Y190 I-2.764 J.759 E.05503
G1 X130.651 Y211.501 E1.15308
G1 X130.561 Y212.016 E.02806
M73 P2 R66
G1 X130.469 Y212.239 E.0129
G1 X130.171 Y212.664 E.02785
G1 X130.109 Y212.708 E.00408
G1 X129.847 Y212.4 F19200
;TYPE:Outer wall
G1 F3000
G1 X129.846 Y212.402 E.00016
G1 X129.436 Y212.657 E.02588
G1 X129.001 Y212.74 E.02374
G1 X119.999 Y212.74 E.48278
G1 X119.49 Y212.627 E.02796
G1 X119.098 Y212.346 E.02587
G1 X118.843 Y211.936 E.02588
G1 X118.76 Y211.501 E.02374
G1 X118.76 Y189.499 E1.17995
G1 X118.873 Y188.99 E.02796
M73 P2 R65
G1 X119.124 Y188.622 E.02388
G1 X119.564 Y188.343 E.02793
G1 X119.999 Y188.26 E.02374
G1 X129.001 Y188.26 E.48278
G1 X129.493 Y188.363 E.02695
G1 X129.902 Y188.654 E.02695
G1 X130.157 Y189.064 E.02587
G1 X130.24 Y189.499 E.02375
G1 X130.24 Y211.501 E1.17995
G1 X130.127 Y212.01 E.02796
G1 X129.871 Y212.368 E.02358
G1 E-.49
;WIPE_START
G1 X129.846 Y212.402 E-.00902
G1 X129.436 Y212.657 E-.10133
G1 X129.001 Y212.74 E-.09297
G1 X128.969 Y212.74 E-.00669
;WIPE_END
G1 X131.229 Y209.665 Z.52 F19200
G1 X208.37 Y104.686 Z.52
G1 Z.32
G1 E.7 F3000
;TYPE:Bottom surface
;WIDTH:0.480771
G1 F6000
G1 X208.629 Y104.945 E.01968
G1 X208.629 Y105.528 E.03131
G1 X207.972 Y104.871 E.0499
G1 X207.389 Y104.871 E.03131
G1 X208.629 Y106.111 E.09419
G1 X208.629 Y106.693 E.03131
G1 X206.806 Y104.871 E.13847
G1 X206.224 Y104.871 E.03131
G1 X208.629 Y107.276 E.18276
G1 X208.629 Y107.859 E.03131
G1 X205.641 Y104.871 E.22704
G1 X205.058 Y104.871 E.03131
G1 X208.629 Y108.442 E.27133
G1 X208.629 Y109.025 E.03131
G1 X204.475 Y104.871 E.31561
G1 X203.892 Y104.871 E.03131
G1 X208.629 Y109.607 E.3599
G1 X208.629 Y110.19 E.03131
G1 X203.31 Y104.871 E.40419
G1 X202.727 Y104.871 E.03131
G1 X208.629 Y110.773 E.44847
G1 X208.629 Y111.356 E.03131
G1 X202.144 Y104.871 E.49276
G1 X201.561 Y104.871 E.03131
G1 X208.629 Y111.939 E.53704
G1 X208.629 Y112.521 E.03131
G1 X200.978 Y104.871 E.58133
G1 X200.395 Y104.871 E.03131
G1 X208.629 Y113.104 E.62562
G1 X208.629 Y113.687 E.03131
G1 X199.813 Y104.871 E.6699
G1 X199.23 Y104.871 E.03131
G1 X208.629 Y114.27 E.71419
G1 X208.629 Y114.853 E.03131
G1 X198.647 Y104.871 E.75847
G1 X198.064 Y104.871 E.03131
G1 X208.629 Y115.435 E.80276
G1 X208.629 Y116.018 E.03131
G1 X197.481 Y104.871 E.84704
G1 X196.898 Y104.87 E.03131
G1 X208.629 Y116.601 E.89133
G1 X208.629 Y117.184 E.03131
G1 X196.316 Y104.87 E.93562
G1 X195.733 Y104.87 E.03131
G1 X208.629 Y117.766 E.9799
G1 X208.629 Y118.349 E.03131
G1 X195.15 Y104.87 E1.02419
G1 X194.567 Y104.87 E.03131
G1 X208.629 Y118.932 E1.06847
G1 X208.629 Y119.515 E.03131
G1 X193.984 Y104.87 E1.11276
G1 X193.401 Y104.87 E.03131
G1 X208.629 Y120.098 E1.15705
G1 X208.629 Y120.68 E.03131
G1 X192.819 Y104.87 E1.20133
G1 X192.236 Y104.87 E.03131
G1 X208.629 Y121.263 E1.24562
G1 X208.629 Y121.846 E.03131
G1 X191.653 Y104.87 E1.2899
G1 X191.07 Y104.87 E.03131
G1 X208.629 Y122.429 E1.33419
G1 X208.629 Y123.012 E.03131
G1 X190.487 Y104.87 E1.37847
G1 X189.905 Y104.87 E.03131
G1 X208.629 Y123.594 E1.42276
G1 X208.629 Y124.177 E.03131
G1 X189.322 Y104.87 E1.46705
G1 X188.739 Y104.87 E.03131
G1 X208.629 Y124.76 E1.51133
G1 X208.629 Y125.343 E.03131
G1 X188.156 Y104.87 E1.55562
G1 X187.573 Y104.87 E.03131
G1 X208.629 Y125.926 E1.5999
G1 X208.629 Y126.508 E.03131
G1 X186.99 Y104.87 E1.64419
G1 X186.408 Y104.87 E.03131
G1 X208.629 Y127.091 E1.68848
G1 X208.629 Y127.674 E.03131
G1 X185.825 Y104.87 E1.73276
G1 X185.242 Y104.87 E.03131
G1 X208.629 Y128.257 E1.77705
G1 X208.629 Y128.84 E.03131
G1 X184.659 Y104.87 E1.82133
G1 X184.076 Y104.87 E.03131
G1 X208.629 Y129.422 E1.86562
G1 X208.629 Y130.005 E.03131
G1 X183.493 Y104.87 E1.9099
G1 X182.911 Y104.87 E.03131
G1 X208.629 Y130.588 E1.95419
G1 X208.629 Y131.171 E.03131
G1 X182.328 Y104.87 E1.99848
G1 X181.745 Y104.87 E.03131
G1 X208.629 Y131.754 E2.04276
G1 X208.629 Y132.336 E.03131
G1 X181.162 Y104.87 E2.08705
G1 X180.579 Y104.87 E.03131
G1 X208.629 Y132.919 E2.13133
G1 X208.629 Y133.502 E.03131
G1 X179.782 Y104.655 E2.19195
G1 E-.49 F3000
;WIPE_START
G1 F6000
G1 X180.489 Y105.362 E-.21
;WIPE_END
G1 X182.042 Y101.876 Z.52 F19200
G1 X207.981 Y43.686 Z.52
G1 Z.32
G1 E.7 F3000
G1 F6000
G1 X208.629 Y44.334 E.04924
G1 X208.629 Y44.917 E.03131
G1 X207.583 Y43.871 E.07946
G1 X207 Y43.871 E.03131
G1 X208.629 Y45.5 E.12374
G1 X208.629 Y46.083 E.03131
G1 X206.418 Y43.871 E.16803
G1 X205.835 Y43.871 E.03131
G1 X208.629 Y46.666 E.21231
G1 X208.629 Y47.248 E.03131
G1 X205.252 Y43.871 E.25659
G1 X204.669 Y43.871 E.03131
G1 X208.629 Y47.831 E.30088
G1 X208.629 Y48.414 E.03131
G1 X204.086 Y43.871 E.34516
G1 X203.504 Y43.871 E.03131
G1 X208.629 Y48.997 E.38944
G1 X208.629 Y49.58 E.03131
G1 X202.921 Y43.871 E.43373
G1 X202.338 Y43.871 E.03131
G1 X208.629 Y50.162 E.47801
G1 X208.629 Y50.745 E.03131
G1 X201.755 Y43.871 E.5223
G1 X201.172 Y43.871 E.03131
G1 X208.629 Y51.328 E.56658
G1 X208.629 Y51.911 E.03131
G1 X200.59 Y43.871 E.61086
G1 X200.007 Y43.871 E.03131
G1 X208.264 Y52.129 E.62744
G1 X207.681 Y52.129 E.03131
G1 X199.424 Y43.871 E.62744
G1 X198.841 Y43.871 E.03131
G1 X207.099 Y52.129 E.62744
G1 X206.516 Y52.129 E.03131
G1 X198.258 Y43.871 E.62744
G1 X197.676 Y43.871 E.03131
G1 X205.933 Y52.129 E.62744
G1 X205.35 Y52.129 E.03131
G1 X197.093 Y43.871 E.62744
G1 X196.51 Y43.871 E.03131
G1 X204.767 Y52.129 E.62744
G1 X204.185 Y52.129 E.03131
G1 X195.927 Y43.871 E.62744
G1 X195.344 Y43.871 E.03131
G1 X203.602 Y52.129 E.62744
G1 X203.019 Y52.129 E.03131
G1 X194.762 Y43.871 E.62744
G1 X194.179 Y43.871 E.03131
G1 X202.436 Y52.129 E.62744
G1 X201.853 Y52.129 E.03131
G1 X193.596 Y43.871 E.62744
G1 X193.013 Y43.871 E.03131
G1 X201.271 Y52.129 E.62744
G1 X200.688 Y52.129 E.03131
G1 X192.43 Y43.871 E.62744
G1 X191.848 Y43.871 E.03131
G1 X200.105 Y52.129 E.62744
G1 X199.522 Y52.129 E.03131
G1 X191.265 Y43.871 E.62744
G1 X190.682 Y43.871 E.03131
G1 X198.939 Y52.129 E.62744
G1 X198.357 Y52.129 E.03131
G1 X190.099 Y43.871 E.62744
G1 X189.516 Y43.871 E.03131
G1 X197.774 Y52.129 E.62744
G1 X197.191 Y52.129 E.03131
G1 X188.934 Y43.871 E.62744
G1 X188.351 Y43.871 E.03131
G1 X196.608 Y52.129 E.62744
G1 X196.026 Y52.129 E.03131
G1 X187.768 Y43.871 E.62744
G1 X187.185 Y43.871 E.03131
G1 X195.443 Y52.129 E.62744
G1 X194.86 Y52.129 E.03131
G1 X186.602 Y43.871 E.62744
G1 X186.02 Y43.871 E.03131
G1 X194.277 Y52.129 E.62744
G1 X193.694 Y52.129 E.03131
G1 X185.437 Y43.871 E.62744
G1 X184.854 Y43.871 E.03131
G1 X193.112 Y52.129 E.62744
G1 X192.529 Y52.129 E.03131
G1 X184.271 Y43.871 E.62744
G1 X183.688 Y43.871 E.03131
G1 X191.946 Y52.129 E.62744
G1 X191.363 Y52.129 E.03131
G1 X183.106 Y43.871 E.62744
G1 X182.523 Y43.871 E.03131
G1 X190.78 Y52.129 E.62744
G1 X190.198 Y52.129 E.03131
G1 X181.94 Y43.871 E.62744
